!!!COM: Haydn, Franz Joseph
!!!OPR: Symphony in G Major
!!!OTL: Affettuoso 
!!!OMV: 1
!!!SCT: H I:92
!!!SCA: Thematisch-bibliographisches Werkevererzeichnis (A. van Hoboken)
!!!YOR: Dover Edition
!!!EED: Frances Bennion
!!!ENC: Frances Bennion
!!!CDT: 1732/3/31/-1809/5/31/
!!!OCY: Österreich
!!!YEC: Copyright (c) 1994, 2000 Center for Computer Assisted Research in the Humanities
!!!YEM: Rights to all derivative editions reserved.
!!!YEM: Refer to licensing agreement for further details.
!!!YEN: United States of America
**kern	**kern	**kern	**kern	**kern	**kern	**kern	**kern	**kern	**kern	**kern	**kern	**kern	**kern	**kern
*k[f#]	*k[]	*k[f#]	*k[f#]	*k[f#]	*k[f#]	*k[f#]	*k[f#]	*k[f#]	*k[f#]	*k[f#]	*k[]	*k[]	*k[]	*k[]
*G:	*G:	*G:	*G:	*G:	*G:	*G:	*G:	*G:	*G:	*G:	*G:	*G:	*G:	*G:
*clefF	*clefF4	*clefF	*clefF	*clefC3	*clefF4	*clefF4	*clefF	*clefF	*clefF4	*clefF4	*clefF	*clefF	*clefF	*clefF
*M3/4	*M3/4	*M3/4	*M3/4	*M3/4	*M3/4	*M3/4	*M3/4	*M3/4	*M3/4	*M3/4	*M3/4	*M3/4	*M3/4	*M3/4
*tb48	*tb48	*tb48	*tb48	*tb48	*tb48	*tb48	*tb48	*tb48	*tb48	*tb48	*tb48	*tb48	*tb48	*tb48
=1	=1	=1	=1	=1	=1	=1	=1	=1	=1	=1	=1	=1	=1	=1
2.r	2.r	8dd	8b	8g	2.r	2.r	2.r	2.r	2.r	2.r	2.r	2.r	2.r	2.r
.	.	8r	8r	8r	.	.	.	.	.	.	.	.	.	.
.	.	8dd	8b	8g	.	.	.	.	.	.	.	.	.	.
.	.	8r	8r	8r	.	.	.	.	.	.	.	.	.	.
.	.	8dd	8b	8g	.	.	.	.	.	.	.	.	.	.
.	.	8r	8r	8r	.	.	.	.	.	.	.	.	.	.
=2	=2	=2	=2	=2	=2	=2	=2	=2	=2	=2	=2	=2	=2	=2
2.r	2.r	[2.dd	4.b	4.g	8GG	2GG	2.r	2.r	2.r	2.r	2.r	2.r	2.r	2.r
.	.	.	.	.	8BB	.	.	.	.	.	.	.	.	.
.	.	.	.	.	8D	.	.	.	.	.	.	.	.	.
.	.	.	8a	8G	8G	.	.	.	.	.	.	.	.	.
.	.	.	8g	8A	8A	4r	.	.	.	.	.	.	.	.
.	.	.	8f#	8B	8B	.	.	.	.	.	.	.	.	.
=3	=3	=3	=3	=3	=3	=3	=3	=3	=3	=3	=3	=3	=3	=3
2.r	2.r	4dd]	4.e	8c	8c	2.C	2.r	2.r	2.r	2.r	2.r	2.r	2.r	2.r
.	.	.	.	8E	8E	.	.	.	.	.	.	.	.	.
.	.	8cc	.	8F#	8F#	.	.	.	.	.	.	.	.	.
.	.	8b	8d	8G#	8G#	.	.	.	.	.	.	.	.	.
.	.	8a	8c	8A	8A	.	.	.	.	.	.	.	.	.
.	.	8ee	8A	8c	8c	.	.	.	.	.	.	.	.	.
=4	=4	=4	=4	=4	=4	=4	=4	=4	=4	=4	=4	=4	=4	=4
2.r	2.r	4g	4d	4B	4B	4D	2.r	2.r	2.r	2.r	2.r	2.r	2.r	2.r
.	.	8f#	2r	8A	8A	2r	.	.	.	.	.	.	.	.
.	.	4.r	.	4.r	4.r	.	.	.	.	.	.	.	.	.
=5	=5	=5	=5	=5	=5	=5	=5	=5	=5	=5	=5	=5	=5	=5
2.r	2.r	8cc	8f# 8a	8d	2.r	2.r	2.r	2.r	2.r	2.r	2.r	2.r	2.r	2.r
.	.	8r	8r	8r	.	.	.	.	.	.	.	.	.	.
.	.	8cc	8a 8f#	8d	.	.	.	.	.	.	.	.	.	.
.	.	8r	8r	8r	.	.	.	.	.	.	.	.	.	.
.	.	8cc	8a 8f#	8d	.	.	.	.	.	.	.	.	.	.
.	.	8r	8r	8r	.	.	.	.	.	.	.	.	.	.
=6	=6	=6	=6	=6	=6	=6	=6	=6	=6	=6	=6	=6	=6	=6
2.r	2.r	[2.cc	4.f# 4.a	4.d	8DD	[2.D	2.r	2.r	2.r	2.r	2.r	2.r	2.r	2.r
.	.	.	.	.	8FF#	.	.	.	.	.	.	.	.	.
.	.	.	.	.	8AA	.	.	.	.	.	.	.	.	.
.	.	.	8b	8D	8D	.	.	.	.	.	.	.	.	.
.	.	.	8a	8F#	8F#	.	.	.	.	.	.	.	.	.
.	.	.	8g	8G	8G	.	.	.	.	.	.	.	.	.
=7	=7	=7	=7	=7	=7	=7	=7	=7	=7	=7	=7	=7	=7	=7
2.r	2.r	8cc]	2f#	8A	8A	2.D]	2.r	2.r	2.r	2.r	2.r	2.r	2.r	2.r
.	.	8ee	.	8c	8c	.	.	.	.	.	.	.	.	.
.	.	8dd	.	8B	8B	.	.	.	.	.	.	.	.	.
.	.	8cc	.	8A	8A	.	.	.	.	.	.	.	.	.
.	.	8b	8g	8G	8G	.	.	.	.	.	.	.	.	.
.	.	8a	8d	8F#	8F#	.	.	.	.	.	.	.	.	.
=8	=8	=8	=8	=8	=8	=8	=8	=8	=8	=8	=8	=8	=8	=8
2.r	2.r	4b	8d	4G	4G	8D	2.r	2.r	2.r	2.r	2.r	2.r	2.r	2.r
.	.	.	8c#	.	.	8r	.	.	.	.	.	.	.	.
.	.	8a	8d	8F#	8F#	8D	.	.	.	.	.	.	.	.
.	.	4.r	4.r	4.r	4.r	4.r	.	.	.	.	.	.	.	.
=9	=9	=9	=9	=9	=9	=9	=9	=9	=9	=9	=9	=9	=9	=9
2.r	2.r	8cc	4g	4e	4e	2.r	2.r	2.r	2.r	2.r	2.r	2.r	2.r	2.r
.	.	16.cc	.	.	.	.	.	.	.	.	.	.	.	.
.	.	32dd	.	.	.	.	.	.	.	.	.	.	.	.
.	.	8b	8g	8d	8d	.	.	.	.	.	.	.	.	.
.	.	4.r	4.r	4.r	4.r	.	.	.	.	.	.	.	.	.
=10	=10	=10	=10	=10	=10	=10	=10	=10	=10	=10	=10	=10	=10	=10
2.r	2.r	8ee	4g	4c	4c	2.r	2.r	2.r	2.r	2.r	2.r	2.r	2.r	2.r
.	.	16.ee	.	.	.	.	.	.	.	.	.	.	.	.
.	.	32ff#	.	.	.	.	.	.	.	.	.	.	.	.
.	.	8gg	8g	8B	8B	.	.	.	.	.	.	.	.	.
.	.	4.r	4.r	4.r	4.r	.	.	.	.	.	.	.	.	.
=11	=11	=11	=11	=11	=11	=11	=11	=11	=11	=11	=11	=11	=11	=11
2.r	2.r	4dd	4d	8B	8B	2.r	2.r	2.r	2.r	2.r	2.r	2.r	2.r	2.r
.	.	.	.	8B-	8B-	.	.	.	.	.	.	.	.	.
.	.	8cc#	8e	8A	8A	.	.	.	.	.	.	.	.	.
.	.	8cc	8f#	8d	8d	.	.	.	.	.	.	.	.	.
.	.	8b	8g	8G	8G	.	.	.	.	.	.	.	.	.
.	.	8b-	8g	8c#	8c#	.	.	.	.	.	.	.	.	.
=12	=12	=12	=12	=12	=12	=12	=12	=12	=12	=12	=12	=12	=12	=12
2.r	2.r	4a	8f#	4d	4d	2.r	2.r	2.r	2.r	2.r	2.r	2.r	2.r	2.r
.	.	.	8d	.	.	.	.	.	.	.	.	.	.	.
.	.	2r	8d	2r	2r	.	.	.	.	.	.	.	.	.
.	.	.	8d	.	.	.	.	.	.	.	.	.	.	.
.	.	.	8d	.	.	.	.	.	.	.	.	.	.	.
.	.	.	8d	.	.	.	.	.	.	.	.	.	.	.
=13	=13	=13	=13	=13	=13	=13	=13	=13	=13	=13	=13	=13	=13	=13
2.r	2.r	8r	4d	2.r	2.E-	2.E-	2.r	2.r	2.r	2.r	2.r	2.r	2.r	2.r
.	.	8gg	.	.	.	.	.	.	.	.	.	.	.	.
.	.	8gg	4c#	.	.	.	.	.	.	.	.	.	.	.
.	.	8gg	.	.	.	.	.	.	.	.	.	.	.	.
.	.	8gg	4c	.	.	.	.	.	.	.	.	.	.	.
.	.	8gg	.	.	.	.	.	.	.	.	.	.	.	.
=14	=14	=14	=14	=14	=14	=14	=14	=14	=14	=14	=14	=14	=14	=14
8r	2.r	8gg	[2.c	8r	[2.D	[2.D	8r	2.r	2.r	2.r	2.r	2.r	2.r	2.r
8eee	.	8ff#	.	8a	.	.	8aa	.	.	.	.	.	.	.
8eee	.	8ff#	.	8a	.	.	8aa	.	.	.	.	.	.	.
8eee	.	8ff#	.	8a	.	.	8aa	.	.	.	.	.	.	.
8eee	.	8ff#	.	8a	.	.	8aa	.	.	.	.	.	.	.
8eee	.	8ff#	.	8a	.	.	8aa	.	.	.	.	.	.	.
=15	=15	=15	=15	=15	=15	=15	=15	=15	=15	=15	=15	=15	=15	=15
8eee-	2.r	8ff#	8c]	8a	8D]	8D]	8aa	8r	8r	8r	8r	8r	2.r	2.r
8ddd	.	8gg	8B-	8g	8D	8D	8bb-	8b-	8D	8D	8g	8G	.	.
8ddd	.	8gg	8B-	8g	8D	8D	8bb-	8b-	8G	8G	8g	8G	.	.
8ddd	.	8ddd	8B-	8g	8D	8D	8gg	8b-	8B-	8B-	8g	8G	.	.
8ddd	.	8ddd	8B-	8g	8D	8D	8gg	8b-	8d	8d	8g	8G	.	.
8ddd	.	8ddd	8B-	8g	8D	8D	8gg	8b-	8B-	8B-	8g	8G	.	.
=16	=16	=16	=16	=16	=16	=16	=16	=16	=16	=16	=16	=16	=16	=16
8ddd	2.r	8ddd	8B-	8g	8E-	8E-	8gg	8b-	8G	8G	8cc	8c	2.r	2.r
8ccc#	.	8ccc#	8g	8g	8E-	8E-	8b-	8b-	8c#	8c#	8cc	8c	.	.
4ccc#	.	4ccc#	4g	4g	4E-	4E-	4b-	4b-	4c#	4c#	4cc	4c	.	.
4r	.	8.r	4r	4r	4r	4r	4r	4r	4r	4r	4r	4r	.	.
.	.	16gg	.	.	.	.	.	.	.	.	.	.	.	.
=17	=17	=17	=17	=17	=17	=17	=17	=17	=17	=17	=17	=17	=17	=17
2.r	2.r	4gg	4r	4r	4r	4r	4r	4r	2.r	2.r	2.r	2.r	2.r	2.r
.	.	4cc#	4B- 4g	4c#	4B- 4E-	4E-	4cc#	4g	.	.	.	.	.	.
.	.	8.r	4B- 4g	4c#	4B- 4E-	4E-	4cc#	4g	.	.	.	.	.	.
.	.	16bb-	.	.	.	.	.	.	.	.	.	.	.	.
=18	=18	=18	=18	=18	=18	=18	=18	=18	=18	=18	=18	=18	=18	=18
2.r	2.r	4bb-	4r	4r	4r	4r	4r	4r	2.r	2.r	2.r	2.r	2.r	2.r
.	.	4cc#	4B- 4g	4c#	4B- 4E-	4E-	4cc#	4g	.	.	.	.	.	.
.	.	4r	4B- 4g	4c#	4B- 4E-	4E-	4cc#	4g	.	.	.	.	.	.
=19	=19	=19	=19	=19	=19	=19	=19	=19	=19	=19	=19	=19	=19	=19
2.r	2.r	12gg	4r	4r	4r	4r	4r	4r	2.r	2.r	2.r	2.r	2.r	2.r
.	.	12ff#	.	.	.	.	.	.	.	.	.	.	.	.
.	.	12ff	.	.	.	.	.	.	.	.	.	.	.	.
.	.	12ee	4B- 4g	4c#	4B- 4E-	4E-	4cc#	4g	.	.	.	.	.	.
.	.	12ee-	.	.	.	.	.	.	.	.	.	.	.	.
.	.	12dd	.	.	.	.	.	.	.	.	.	.	.	.
.	.	8cc#	4B- 4g	4c#	4B- 4E-	4E-	4cc#	4g	.	.	.	.	.	.
.	.	16r	.	.	.	.	.	.	.	.	.	.	.	.
.	.	16bb-	.	.	.	.	.	.	.	.	.	.	.	.
=20	=20	=20	=20	=20	=20	=20	=20	=20	=20	=20	=20	=20	=20	=20
2r	2r	4bb-	2r	2r	2r	2r	2r	2r	2r	2r	2r	2r	2r	2r
.	.	4cc#	.	.	.	.	.	.	.	.	.	.	.	.
4r	4r	4r	4r	4r	4r	4r	4r	4r	4r	4r	4r	4r	4r	4r
=21	=21	=21	=21	=21	=21	=21	=21	=21	=21	=21	=21	=21	=21	=21
2.r	2.r	[4cc	8f# 8A	8c	8D	8D	2.r	2.r	2.r	2.r	2.r	2.r	2.r	2.r
.	.	.	8f# 8A	8c	8D	8D	.	.	.	.	.	.	.	.
.	.	8cc]	8f# 8A	8c	8D	8D	.	.	.	.	.	.	.	.
.	.	8b	4.r	4.r	4.r	4.r	.	.	.	.	.	.	.	.
.	.	8a	.	.	.	.	.	.	.	.	.	.	.	.
.	.	8g	.	.	.	.	.	.	.	.	.	.	.	.
=22	=22	=22	=22	=22	=22	=22	=22	=22	=22	=22	=22	=22	=22	=22
2.r	2.r	[6..f#	8f# 8A	8c	8c	8D	2.r	2.r	2.r	2.r	2.r	2.r	2.r	2.r
.	.	.	8f# 8A	8c	8c	8D	.	.	.	.	.	.	.	.
.	.	.	8A 8f#	8c	8c	8D	.	.	.	.	.	.	.	.
.	.	48f#]	.	.	.	.	.	.	.	.	.	.	.	.
.	.	16a	.	.	.	.	.	.	.	.	.	.	.	.
.	.	16g	4.r	4.r	4.r	4.r	.	.	.	.	.	.	.	.
.	.	16b	.	.	.	.	.	.	.	.	.	.	.	.
.	.	16a	.	.	.	.	.	.	.	.	.	.	.	.
.	.	16cc	.	.	.	.	.	.	.	.	.	.	.	.
.	.	16b	.	.	.	.	.	.	.	.	.	.	.	.
.	.	16dd	.	.	.	.	.	.	.	.	.	.	.	.
=23	=23	=23	=23	=23	=23	=23	=23	=23	=23	=23	=23	=23	=23	=23
2.r	2.r	[4cc	8A 8f#	8c	8D	8D	2.r	2.r	2.r	2.r	2.r	2.r	2.r	2.r
.	.	.	8f# 8A	8c	8D	8D	.	.	.	.	.	.	.	.
.	.	8cc]	8A 8f#	8c	8D	8D	.	.	.	.	.	.	.	.
.	.	8b	4.r	4.r	4.r	4.r	.	.	.	.	.	.	.	.
.	.	8a	.	.	.	.	.	.	.	.	.	.	.	.
.	.	8g	.	.	.	.	.	.	.	.	.	.	.	.
=24	=24	=24	=24	=24	=24	=24	=24	=24	=24	=24	=24	=24	=24	=24
2.r	2.r	8f#	8A 8f#	8c	8c	8D	2.r	2.r	2.r	2.r	2.r	2.r	2.r	2.r
.	.	8r	8A 8f#	8c	8c	8D	.	.	.	.	.	.	.	.
.	.	8aa	8f# 8A	8c	8c	8D	.	.	.	.	.	.	.	.
.	.	4.r	4.r	4.r	4.r	4.r	.	.	.	.	.	.	.	.
=25	=25	=25	=25	=25	=25	=25	=25	=25	=25	=25	=25	=25	=25	=25
2.gg	4GG	4G 4g	16B	4G	8GG	8GG	2dd	2.b	4GG	4GG	2.cc	2.e	2g	2g
.	.	.	16d	.	.	.	.	.	.	.	.	.	.	.
.	.	.	16B	.	8G	8G	.	.	.	.	.	.	.	.
.	.	.	16d	.	.	.	.	.	.	.	.	.	.	.
.	2r	4bb	16B	4G	8G	8G	.	.	4B	4G	.	.	.	.
.	.	.	16d	.	.	.	.	.	.	.	.	.	.	.
.	.	.	16B	.	8G	8G	.	.	.	.	.	.	.	.
.	.	.	16d	.	.	.	.	.	.	.	.	.	.	.
.	.	8r	16B	4G	8G	8G	4gg	.	4B	4G	.	.	4r	4r
.	.	.	16d	.	.	.	.	.	.	.	.	.	.	.
.	.	8gg	16B	.	8G	8G	.	.	.	.	.	.	.	.
.	.	.	16d	.	.	.	.	.	.	.	.	.	.	.
=26	=26	=26	=26	=26	=26	=26	=26	=26	=26	=26	=26	=26	=26	=26
4ff#	4D	16ff#	4c	2.c	8G	8G	2ff#	2.cc	2A	2F#	2.dd	2.g	2.dd	2.dd
.	.	16aa	.	.	.	.	.	.	.	.	.	.	.	.
.	.	16ff#	.	.	8G	8G	.	.	.	.	.	.	.	.
.	.	16dd	.	.	.	.	.	.	.	.	.	.	.	.
4aa	2r	16cc	2A 2f#	.	8G	8G	.	.	.	.	.	.	.	.
.	.	16ee	.	.	.	.	.	.	.	.	.	.	.	.
.	.	16cc	.	.	8G	8G	.	.	.	.	.	.	.	.
.	.	16a	.	.	.	.	.	.	.	.	.	.	.	.
4ccc	.	16f#	.	.	8G	8G	4aa	.	4c	4A	.	.	.	.
.	.	16a	.	.	.	.	.	.	.	.	.	.	.	.
.	.	16f#	.	.	8G	8G	.	.	.	.	.	.	.	.
.	.	16d	.	.	.	.	.	.	.	.	.	.	.	.
=27	=27	=27	=27	=27	=27	=27	=27	=27	=27	=27	=27	=27	=27	=27
2bb	4GG	4g	16g	4B	8GG	8GG	2dd	2.b	4B	4G	2.ee	2.cc	4g	4g
.	.	.	16d	.	.	.	.	.	.	.	.	.	.	.
.	.	.	16B	.	8G	8G	.	.	.	.	.	.	.	.
.	.	.	16d	.	.	.	.	.	.	.	.	.	.	.
.	2r	4bb	16B	4d	8G	8G	.	.	4B	4G	.	.	2r	2r
.	.	.	16d	.	.	.	.	.	.	.	.	.	.	.
.	.	.	16B	.	8G	8G	.	.	.	.	.	.	.	.
.	.	.	16d	.	.	.	.	.	.	.	.	.	.	.
4gg	.	8r	16B	4g	8G	8G	4gg	.	4B	4G	.	.	.	.
.	.	.	16d	.	.	.	.	.	.	.	.	.	.	.
.	.	8gg	16B	.	8G	8G	.	.	.	.	.	.	.	.
.	.	.	16d	.	.	.	.	.	.	.	.	.	.	.
=28	=28	=28	=28	=28	=28	=28	=28	=28	=28	=28	=28	=28	=28	=28
4ff#	8D	16ff#	4c	2.c	8G	8G	2ff#	2.cc	2A	2F#	2.dd	2.g	8dd	8dd
.	.	16aa	.	.	.	.	.	.	.	.	.	.	.	.
.	16D	16ff#	.	.	8G	8G	.	.	.	.	.	.	16dd	16dd
.	16D	16dd	.	.	.	.	.	.	.	.	.	.	16dd	16dd
4aa	8D	16cc	2f# 2A	.	8G	8G	.	.	.	.	.	.	8dd	8dd
.	.	16ee	.	.	.	.	.	.	.	.	.	.	.	.
.	8D	16cc	.	.	8G	8G	.	.	.	.	.	.	8dd	8dd
.	.	16a	.	.	.	.	.	.	.	.	.	.	.	.
4ccc	8D	16f#	.	.	8G	8G	4aa	.	4c	4A	.	.	8dd	8dd
.	.	16a	.	.	.	.	.	.	.	.	.	.	.	.
.	8D	16f#	.	.	8G	8G	.	.	.	.	.	.	8dd	8dd
.	.	16d	.	.	.	.	.	.	.	.	.	.	.	.
=29	=29	=29	=29	=29	=29	=29	=29	=29	=29	=29	=29	=29	=29	=29
4bb	4GG	8g	8g 8G	8B	8G	8G	8gg	8b	8B	8G	4cc	4e	4dd	4g
.	.	8r	8r	8r	8r	8r	8r	8r	8r	8r	.	.	.	.
2r	2r	8a 8d	8a 8d	8A	8F#	8F#	8aa	8a	8F#	8F#	2r	2r	2r	2r
.	.	8r	8r	8r	8r	8r	8r	8r	8r	8r	.	.	.	.
.	.	8b 8d	8b 8d	8G	8G	8G	8bb	8g	8G	8G	.	.	.	.
.	.	8r	8r	8r	8r	8r	8r	8r	8r	8r	.	.	.	.
=30	=30	=30	=30	=30	=30	=30	=30	=30	=30	=30	=30	=30	=30	=30
2.r	2.r	8e 8cc	8cc 8e	8G	8E	8E	8ccc	8g	8E	8E	2.r	2.r	2.r	2.r
.	.	8r	8r	8r	8r	8r	8r	8r	8r	8r	.	.	.	.
.	.	8ee 8cc	8cc 8ee	8G	8C	8C	8ee	8g	8C	8C	.	.	.	.
.	.	4.r	4.r	4.r	4.r	4.r	4.r	4.r	4.r	4.r	.	.	.	.
=31	=31	=31	=31	=31	=31	=31	=31	=31	=31	=31	=31	=31	=31	=31
2.aa	4D	16d	2.c 2.f#	2.D	2.D	2.D	2.ff#	2.cc	2.A	2.D	2.dd	2.g	2.dd	2.dd
.	.	16e	.	.	.	.	.	.	.	.	.	.	.	.
.	.	16f#	.	.	.	.	.	.	.	.	.	.	.	.
.	.	16g	.	.	.	.	.	.	.	.	.	.	.	.
.	4D	16a	.	.	.	.	.	.	.	.	.	.	.	.
.	.	16b	.	.	.	.	.	.	.	.	.	.	.	.
.	.	16cc	.	.	.	.	.	.	.	.	.	.	.	.
.	.	16dd	.	.	.	.	.	.	.	.	.	.	.	.
.	4D	16ee	.	.	.	.	.	.	.	.	.	.	.	.
.	.	16ff#	.	.	.	.	.	.	.	.	.	.	.	.
.	.	16gg	.	.	.	.	.	.	.	.	.	.	.	.
.	.	16aa	.	.	.	.	.	.	.	.	.	.	.	.
=32	=32	=32	=32	=32	=32	=32	=32	=32	=32	=32	=32	=32	=32	=32
4bb	4GG	8bb	4g 4B	4G	4G	4G	4gg	4b	4G	4G	4ee	4cc	4dd	4g
.	.	8gg	.	.	.	.	.	.	.	.	.	.	.	.
8r	8r	8dd	8r	2r	2r	2r	8r	8r	8r	8r	8r	8r	8r	8r
8ddd	8GG	8b	8b	.	.	.	8bb	8gg	8G	8G	8ee	8cc	8dd	8g
8ddd	8GG	8g	8g	.	.	.	8bb	8gg	8G	8G	8ee	8cc	8dd	8g
8ddd	8GG	8d	8d	.	.	.	8bb	8gg	8G	8G	8ee	8cc	8dd	8g
=33	=33	=33	=33	=33	=33	=33	=33	=33	=33	=33	=33	=33	=33	=33
[2.ddd	4GG	16B	16B	4g	4G	4G	4bb	4gg	4G	4G	4ee	4cc	4dd	4g
.	.	16d	16d	.	.	.	.	.	.	.	.	.	.	.
.	.	16B	16B	.	.	.	.	.	.	.	.	.	.	.
.	.	16d	16d	.	.	.	.	.	.	.	.	.	.	.
.	4r	16c	16c	2f#	4A	4A	4ccc	2ff#	4A	4A	4r	4r	2r	2r
.	.	16d	16d	.	.	.	.	.	.	.	.	.	.	.
.	.	16c	16c	.	.	.	.	.	.	.	.	.	.	.
.	.	16d	16d	.	.	.	.	.	.	.	.	.	.	.
.	4D	16A	16A	.	4D	4D	4aa	.	4D	4D	4dd	4g	.	.
.	.	16d	16d	.	.	.	.	.	.	.	.	.	.	.
.	.	16A	16A	.	.	.	.	.	.	.	.	.	.	.
.	.	16d	16d	.	.	.	.	.	.	.	.	.	.	.
=34	=34	=34	=34	=34	=34	=34	=34	=34	=34	=34	=34	=34	=34	=34
2.ddd_	4GG	16B	16B	4g	4G	4G	4bb	4gg	4G	4G	4ee	4cc	4dd	4g
.	.	16d	16d	.	.	.	.	.	.	.	.	.	.	.
.	.	16B	16B	.	.	.	.	.	.	.	.	.	.	.
.	.	16d	16d	.	.	.	.	.	.	.	.	.	.	.
.	4r	16c	16c	2f#	4A	4A	4ccc	2ff#	4A	4A	4r	4r	2r	2r
.	.	16d	16d	.	.	.	.	.	.	.	.	.	.	.
.	.	16c	16c	.	.	.	.	.	.	.	.	.	.	.
.	.	16d	16d	.	.	.	.	.	.	.	.	.	.	.
.	4D	16A	16A	.	4D	4D	4aa	.	4D	4D	4dd	4g	.	.
.	.	16d	16d	.	.	.	.	.	.	.	.	.	.	.
.	.	16A	16A	.	.	.	.	.	.	.	.	.	.	.
.	.	16d	16d	.	.	.	.	.	.	.	.	.	.	.
=35	=35	=35	=35	=35	=35	=35	=35	=35	=35	=35	=35	=35	=35	=35
2.ddd_	4GG	16B	16B	4g	8G	8G	8bb	4gg	8G	8G	4ee	4cc	4dd	4g
.	.	16d	16d	.	.	.	.	.	.	.	.	.	.	.
.	.	16B	16B	.	16F#	16F#	16aa	.	16F#	16F#	.	.	.	.
.	.	16d	16d	.	16G	16G	16bb	.	16G	16G	.	.	.	.
.	4r	16c	16c	2f#	4A	4A	4ccc	2ff#	4A	4A	4r	4r	2r	2r
.	.	16d	16d	.	.	.	.	.	.	.	.	.	.	.
.	.	16c	16c	.	.	.	.	.	.	.	.	.	.	.
.	.	16d	16d	.	.	.	.	.	.	.	.	.	.	.
.	4D	16A	16A	.	4D	4D	4aa	.	4D	4D	4dd	4g	.	.
.	.	16d	16d	.	.	.	.	.	.	.	.	.	.	.
.	.	16A	16A	.	.	.	.	.	.	.	.	.	.	.
.	.	16d	16d	.	.	.	.	.	.	.	.	.	.	.
=36	=36	=36	=36	=36	=36	=36	=36	=36	=36	=36	=36	=36	=36	=36
2ddd]	4GG	16B	16B	2g	2G	2G	2bb	2.gg	2G	2G	4ee	4cc	4dd	4g
.	.	16g	16g	.	.	.	.	.	.	.	.	.	.	.
.	.	16b	16b	.	.	.	.	.	.	.	.	.	.	.
.	.	16a	16a	.	.	.	.	.	.	.	.	.	.	.
.	2r	16g	16g	.	.	.	.	.	.	.	4r	4r	2r	2r
.	.	16f#	16f#	.	.	.	.	.	.	.	.	.	.	.
.	.	16e	16e	.	.	.	.	.	.	.	.	.	.	.
.	.	16d	16d	.	.	.	.	.	.	.	.	.	.	.
4ccc#	.	16c#	16c#	4e	4A	4A	4ccc#	.	4A	4A	4dd	4dd	.	.
.	.	16A	16A	.	.	.	.	.	.	.	.	.	.	.
.	.	16B	16B	.	.	.	.	.	.	.	.	.	.	.
.	.	16c#	16c#	.	.	.	.	.	.	.	.	.	.	.
=37	=37	=37	=37	=37	=37	=37	=37	=37	=37	=37	=37	=37	=37	=37
4ddd	4D	16d	4d	4d	4D	4D	4ddd	4ff#	4D	4D	4dd	4g	4dd	4dd
.	.	16e	.	.	.	.	.	.	.	.	.	.	.	.
.	.	16f#	.	.	.	.	.	.	.	.	.	.	.	.
.	.	16g	.	.	.	.	.	.	.	.	.	.	.	.
4r	2r	16a	4r	4r	4r	4r	4r	4r	4r	4r	4r	4r	2r	2r
.	.	16b	.	.	.	.	.	.	.	.	.	.	.	.
.	.	16cc#	.	.	.	.	.	.	.	.	.	.	.	.
.	.	16dd	.	.	.	.	.	.	.	.	.	.	.	.
4gg	.	16a	4A 4cc# 4e	4a	4A	4A	4ccc#	4ee	4A	4A	4dd	4dd	.	.
.	.	16g	.	.	.	.	.	.	.	.	.	.	.	.
.	.	16f#	.	.	.	.	.	.	.	.	.	.	.	.
.	.	16e	.	.	.	.	.	.	.	.	.	.	.	.
=38	=38	=38	=38	=38	=38	=38	=38	=38	=38	=38	=38	=38	=38	=38
4ff#	4D	16d	4dd 4A 4f#	4a	4d	4d	4ddd	4ff#	4d	4d	4dd	4g	4dd	4dd
.	.	16e	.	.	.	.	.	.	.	.	.	.	.	.
.	.	16f#	.	.	.	.	.	.	.	.	.	.	.	.
.	.	16g	.	.	.	.	.	.	.	.	.	.	.	.
4r	2r	16a	4r	4r	4F#	4F#	4r	4r	4F#	4F#	4r	4r	2r	2r
.	.	16b	.	.	.	.	.	.	.	.	.	.	.	.
.	.	16cc#	.	.	.	.	.	.	.	.	.	.	.	.
.	.	16dd	.	.	.	.	.	.	.	.	.	.	.	.
4gg	.	16a	4cc# 4A 4e	4a	4A	4A	4ccc#	4ee	4A	4A	4dd	4dd	.	.
.	.	16g	.	.	.	.	.	.	.	.	.	.	.	.
.	.	16f#	.	.	.	.	.	.	.	.	.	.	.	.
.	.	16e	.	.	.	.	.	.	.	.	.	.	.	.
=39	=39	=39	=39	=39	=39	=39	=39	=39	=39	=39	=39	=39	=39	=39
4ff#	4D	4d	4f# 4dd 4A	8d	8d	4d	4ddd	4ff#	4d	4d	4dd	4g	4dd	4dd
.	.	.	.	8d	8d	.	.	.	.	.	.	.	.	.
2r	2r	8r	8r	8d	8d	2r	2r	2r	2r	2r	2r	2r	2r	2r
.	.	8e	8c#	4.r	4.r	.	.	.	.	.	.	.	.	.
.	.	8f#	8d	.	.	.	.	.	.	.	.	.	.	.
.	.	8g	8e	.	.	.	.	.	.	.	.	.	.	.
=40	=40	=40	=40	=40	=40	=40	=40	=40	=40	=40	=40	=40	=40	=40
2.r	2.r	4a	4f#	8d	8d	2.r	2.r	2.r	2.r	2.r	2.r	2.r	2.r	2.r
.	.	.	.	8d	8d	.	.	.	.	.	.	.	.	.
.	.	8r	8r	8d	8d	.	.	.	.	.	.	.	.	.
.	.	8g#	8e#	4.r	4.r	.	.	.	.	.	.	.	.	.
.	.	8a	8f#	.	.	.	.	.	.	.	.	.	.	.
.	.	8b	8g#	.	.	.	.	.	.	.	.	.	.	.
=41	=41	=41	=41	=41	=41	=41	=41	=41	=41	=41	=41	=41	=41	=41
[4ccc	2.r	[4cc	8a	2.r	2.r	2.r	2.r	2.r	8c	8F#	8dd	8g	2.r	2.r
.	.	.	2r	.	.	.	.	.	8c	8F#	8dd	8g	.	.
8ccc]	.	8cc]	.	.	.	.	.	.	8c	8F#	8dd	8g	.	.
8bb	.	8b	.	.	.	.	.	.	4.r	4.r	4.r	4.r	.	.
8aa	.	8a	.	.	.	.	.	.	.	.	.	.	.	.
8gg	.	8g	8r	.	.	.	.	.	.	.	.	.	.	.
=42	=42	=42	=42	=42	=42	=42	=42	=42	=42	=42	=42	=42	=42	=42
[4ff#	2.r	[6..f#	2.r	2.r	2.r	2.r	2.r	2.r	8c	8F#	8dd	8g	2.r	2.r
.	.	.	.	.	.	.	.	.	8c	8F#	8dd	8g	.	.
16ff#]	.	.	.	.	.	.	.	.	8c	8F#	8dd	8g	.	.
.	.	48f#]	.	.	.	.	.	.	.	.	.	.	.	.
16aa	.	16a	.	.	.	.	.	.	.	.	.	.	.	.
16gg	.	16g	.	.	.	.	.	.	4.r	4.r	4.r	4.r	.	.
16bb	.	16b	.	.	.	.	.	.	.	.	.	.	.	.
16aa	.	16a	.	.	.	.	.	.	.	.	.	.	.	.
16ccc	.	16cc	.	.	.	.	.	.	.	.	.	.	.	.
16bb	.	16b	.	.	.	.	.	.	.	.	.	.	.	.
16ddd	.	16dd	.	.	.	.	.	.	.	.	.	.	.	.
=43	=43	=43	=43	=43	=43	=43	=43	=43	=43	=43	=43	=43	=43	=43
[4ccc	2.r	[4cc	2.r	2.r	2.r	2.r	2.r	2.r	8c	8F#	8dd	8g	2.r	2.r
.	.	.	.	.	.	.	.	.	8c	8F#	8dd	8g	.	.
8ccc]	.	8cc]	.	.	.	.	.	.	8c	8F#	8dd	8g	.	.
8bb	.	8b	.	.	.	.	.	.	4.r	4.r	4.r	4.r	.	.
8aa	.	8a	.	.	.	.	.	.	.	.	.	.	.	.
8gg	.	8g	.	.	.	.	.	.	.	.	.	.	.	.
=44	=44	=44	=44	=44	=44	=44	=44	=44	=44	=44	=44	=44	=44	=44
8ff#	2.r	8f#	2.r	2.r	2.r	2.r	2.r	2.r	8c	8F#	8dd	8g	2.r	2.r
8r	.	8r	.	.	.	.	.	.	8c	8F#	8dd	8g	.	.
8aa	.	8aa	.	.	.	.	.	.	8c	8F#	8dd	8g	.	.
4.r	.	4.r	.	.	.	.	.	.	4.r	4.r	4.r	4.r	.	.
=45	=45	=45	=45	=45	=45	=45	=45	=45	=45	=45	=45	=45	=45	=45
2.r	4GG	4g	16B	2.B 2.d	8GG	8GG	2dd	2.b	2.B	2.G	2.cc	2.e	2g	2g
.	.	.	16d	.	.	.	.	.	.	.	.	.	.	.
.	.	.	16B	.	8G	8G	.	.	.	.	.	.	.	.
.	.	.	16d	.	.	.	.	.	.	.	.	.	.	.
.	2r	4bb	16B	.	8G	8G	.	.	.	.	.	.	.	.
.	.	.	16d	.	.	.	.	.	.	.	.	.	.	.
.	.	.	16B	.	8G	8G	.	.	.	.	.	.	.	.
.	.	.	16d	.	.	.	.	.	.	.	.	.	.	.
.	.	8r	16B	.	8G	8G	4gg	.	.	.	.	.	4r	4r
.	.	.	16d	.	.	.	.	.	.	.	.	.	.	.
.	.	8gg	16B	.	8G	8G	.	.	.	.	.	.	.	.
.	.	.	16d	.	.	.	.	.	.	.	.	.	.	.
=46	=46	=46	=46	=46	=46	=46	=46	=46	=46	=46	=46	=46	=46	=46
2.r	8D	16ff#	16c	2.A 2.f#	8G	8G	2ff#	2.cc	2.c	2F#	2.dd	2.g	8dd	8dd
.	.	16aa	16d	.	.	.	.	.	.	.	.	.	.	.
.	16D	16ff#	16c	.	8G	8G	.	.	.	.	.	.	16dd	16dd
.	16D	16dd	16d	.	.	.	.	.	.	.	.	.	16dd	16dd
.	8D	16cc	16c	.	8G	8G	.	.	.	.	.	.	8dd	8dd
.	.	16ee	16d	.	.	.	.	.	.	.	.	.	.	.
.	8D	16cc	16c	.	8G	8G	.	.	.	.	.	.	8dd	8dd
.	.	16a	16d	.	.	.	.	.	.	.	.	.	.	.
.	8D	16f#	16c	.	8G	8G	4aa	.	.	4r	.	.	8dd	8dd
.	.	16a	16d	.	.	.	.	.	.	.	.	.	.	.
.	8D	16f#	16c	.	8G	8G	.	.	.	.	.	.	8dd	8dd
.	.	16d	16d	.	.	.	.	.	.	.	.	.	.	.
=47	=47	=47	=47	=47	=47	=47	=47	=47	=47	=47	=47	=47	=47	=47
4r	4GG	4g	4B	4G 4g	4G	4G	4gg	4b	4r	4r	4ee	4e	4dd	4g
[2bb	2r	4.bb 4.b	4.b 4.ff#	2d#	2D#	2D#	4.bb	2ff#	2d#	2d#	2ee	2e	2r	2r
.	.	8aa	8aa	.	.	.	8aa	.	.	.	.	.	.	.
=48	=48	=48	=48	=48	=48	=48	=48	=48	=48	=48	=48	=48	=48	=48
4bb]	2.r	16gg	16gg	4e	4E	4E	4gg	4gg	4e	4e	2.r	2.r	2.r	2.r
.	.	16bb	16bb	.	.	.	.	.	.	.	.	.	.	.
.	.	16gg	16gg	.	.	.	.	.	.	.	.	.	.	.
.	.	16ee	16ee	.	.	.	.	.	.	.	.	.	.	.
4aa	.	16dd#	16dd#	4f#	4F#	4F#	4dd#	4ff#	4f#	4f#	.	.	.	.
.	.	16ff#	16ff#	.	.	.	.	.	.	.	.	.	.	.
.	.	16dd#	16dd#	.	.	.	.	.	.	.	.	.	.	.
.	.	16b	16b	.	.	.	.	.	.	.	.	.	.	.
4gg	.	8ee	8ee	4g	4G	4G	4ee	4ee	4g	4g	.	.	.	.
.	.	8gg	8gg	.	.	.	.	.	.	.	.	.	.	.
=49	=49	=49	=49	=49	=49	=49	=49	=49	=49	=49	=49	=49	=49	=49
4r	2.r	4a	4a	4c#	4r	4r	8cc#	4r	4c#	4c#	2.r	2.r	2.r	2.r
.	.	.	.	.	.	.	8ee	.	.	.	.	.	.	.
[2aa	.	4.aa 4.a	4.ee 4.a	2c#	2C#	2C#	4.aa	2ee	2c#	2c#	.	.	.	.
.	.	8gg	8gg	.	.	.	8gg	.	.	.	.	.	.	.
=50	=50	=50	=50	=50	=50	=50	=50	=50	=50	=50	=50	=50	=50	=50
4aa]	2.r	16ff#	16ff#	4d	4D	4D	4ff#	4ff#	4d	4d	2.r	2.r	2.r	2.r
.	.	16aa	16aa	.	.	.	.	.	.	.	.	.	.	.
.	.	16ff#	16ff#	.	.	.	.	.	.	.	.	.	.	.
.	.	16dd	16dd	.	.	.	.	.	.	.	.	.	.	.
4gg	.	16cc#	16cc#	4g	4E	4E	4cc#	4ee	4e	4e	.	.	.	.
.	.	16ee	16ee	.	.	.	.	.	.	.	.	.	.	.
.	.	16cc#	16cc#	.	.	.	.	.	.	.	.	.	.	.
.	.	16a	16a	.	.	.	.	.	.	.	.	.	.	.
4ff#	.	8dd	8dd	4f#	4F#	4F#	4dd	8dd	4f#	4f#	.	.	.	.
.	.	8ff#	8aa	.	.	.	.	8aa	.	.	.	.	.	.
=51	=51	=51	=51	=51	=51	=51	=51	=51	=51	=51	=51	=51	=51	=51
4bb	2.r	8b	4aa	4d	4G	4G	2.bb	4aa	4g	4g	2.r	2.r	2.r	2.r
.	.	16cc#	.	.	.	.	.	.	.	.	.	.	.	.
.	.	16dd	.	.	.	.	.	.	.	.	.	.	.	.
4gg	.	16ee	4gg	4g	4E	4E	.	4gg	4e	4e	.	.	.	.
.	.	16ff#	.	.	.	.	.	.	.	.	.	.	.	.
.	.	16gg	.	.	.	.	.	.	.	.	.	.	.	.
.	.	16aa	.	.	.	.	.	.	.	.	.	.	.	.
4ff#	.	8bb	4gg	4f#	4D	4D	.	4gg	4d	4d	.	.	.	.
.	.	8bb	.	.	.	.	.	.	.	.	.	.	.	.
=52	=52	=52	=52	=52	=52	=52	=52	=52	=52	=52	=52	=52	=52	=52
2ee	2.r	16a	4.gg	2e	2C#	2C#	2.aa	2gg	2c#	2c#	2.r	2.r	2.r	2.r
.	.	16b	.	.	.	.	.	.	.	.	.	.	.	.
.	.	16cc#	.	.	.	.	.	.	.	.	.	.	.	.
.	.	16dd	.	.	.	.	.	.	.	.	.	.	.	.
.	.	16ee	.	.	.	.	.	.	.	.	.	.	.	.
.	.	16ff#	.	.	.	.	.	.	.	.	.	.	.	.
.	.	16gg	8ee	.	.	.	.	.	.	.	.	.	.	.
.	.	16aa	.	.	.	.	.	.	.	.	.	.	.	.
4ff#	.	8a	8ff#	4d	4D	4D	.	4ff#	4d	4d	.	.	.	.
.	.	8aa	8ff#	.	.	.	.	.	.	.	.	.	.	.
=53	=53	=53	=53	=53	=53	=53	=53	=53	=53	=53	=53	=53	=53	=53
2dd	2.r	16g	4.ff#	2d	2BB	2BB	2.gg	2ff#	2B	2B	2.r	2.r	2.r	2.r
.	.	16a	.	.	.	.	.	.	.	.	.	.	.	.
.	.	16b	.	.	.	.	.	.	.	.	.	.	.	.
.	.	16cc#	.	.	.	.	.	.	.	.	.	.	.	.
.	.	16dd	.	.	.	.	.	.	.	.	.	.	.	.
.	.	16ee	.	.	.	.	.	.	.	.	.	.	.	.
.	.	16ff#	8dd	.	.	.	.	.	.	.	.	.	.	.
.	.	16gg	.	.	.	.	.	.	.	.	.	.	.	.
4ee	.	8g	8ee	4A	4C#	4C#	.	4ee	4c#	4c#	.	.	.	.
.	.	8gg	8ee	.	.	.	.	.	.	.	.	.	.	.
=54	=54	=54	=54	=54	=54	=54	=54	=54	=54	=54	=54	=54	=54	=54
4ff#	2.r	16ff#	16ff#	4f#	4D	4D	4ff#	4ff#	4d	4d	2.r	2.r	2.r	2.r
.	.	16gg	16gg	.	.	.	.	.	.	.	.	.	.	.
.	.	16aa	16aa	.	.	.	.	.	.	.	.	.	.	.
.	.	16gg	16gg	.	.	.	.	.	.	.	.	.	.	.
4gg	.	16ff#	16ff#	4g	4E	4E	4gg	4gg	2r	2r	.	.	.	.
.	.	16ee	16ee	.	.	.	.	.	.	.	.	.	.	.
.	.	16dd	16dd	.	.	.	.	.	.	.	.	.	.	.
.	.	16cc#	16cc#	.	.	.	.	.	.	.	.	.	.	.
4aa	.	16b	16b	4a	4F#	4F#	4aa	4aa	.	.	.	.	.	.
.	.	16a	16a	.	.	.	.	.	.	.	.	.	.	.
.	.	16g	16g	.	.	.	.	.	.	.	.	.	.	.
.	.	16f#	16f#	.	.	.	.	.	.	.	.	.	.	.
=55	=55	=55	=55	=55	=55	=55	=55	=55	=55	=55	=55	=55	=55	=55
4bb	2.r	16e	16e	2b	2G	2G	4bb	4bb	2.r	2.r	2.r	2.r	2.r	2.r
.	.	16f#	16f#	.	.	.	.	.	.	.	.	.	.	.
.	.	16g	16g	.	.	.	.	.	.	.	.	.	.	.
.	.	16a	16a	.	.	.	.	.	.	.	.	.	.	.
16bb	.	16b	16b	.	.	.	16bb	16bb	.	.	.	.	.	.
16aa	.	16a	16a	.	.	.	16aa	16aa	.	.	.	.	.	.
16gg	.	16g	16g	.	.	.	16gg	16gg	.	.	.	.	.	.
16ff#	.	16f#	16f#	.	.	.	16ff#	16ff#	.	.	.	.	.	.
16ee	.	16e	16e	4G#	4G#	4G#	16ee	16ee	.	.	.	.	.	.
16dd	.	16d	16d	.	.	.	16dd	16dd	.	.	.	.	.	.
16cc#	.	16c#	16c#	.	.	.	16cc#	16cc#	.	.	.	.	.	.
16b	.	16B	16B	.	.	.	16b	16b	.	.	.	.	.	.
=56	=56	=56	=56	=56	=56	=56	=56	=56	=56	=56	=56	=56	=56	=56
4a	2.r	4A	4A	4A	4A	4A	4a	4a	8AA	8AA	4dd	4dd	2.r	2.r
.	.	.	.	.	.	.	.	.	8A	8A	.	.	.	.
2r	.	2r	2r	2r	2r	2r	2r	2r	8A	8A	8dd	8dd	.	.
.	.	.	.	.	.	.	.	.	8A	8A	8dd	8dd	.	.
.	.	.	.	.	.	.	.	.	8A	8A	8dd	8dd	.	.
.	.	.	.	.	.	.	.	.	8A	8A	8dd	8dd	.	.
=57	=57	=57	=57	=57	=57	=57	=57	=57	=57	=57	=57	=57	=57	=57
2.r	2.r	[4g	[4g	4A	4AA	4AA	8cc#	8a	[2.A	[2.A	4dd	4dd	2.r	2.r
.	.	.	.	.	.	.	8dd	8b	.	.	.	.	.	.
.	.	8g]	8g]	2r	2r	2r	8ee	8cc#	.	.	2r	2r	.	.
.	.	8f#	8f#	.	.	.	8ff#	8dd	.	.	.	.	.	.
.	.	8e	8e	.	.	.	8gg	8ee	.	.	.	.	.	.
.	.	8d	8d	.	.	.	8aa	8ff#	.	.	.	.	.	.
=58	=58	=58	=58	=58	=58	=58	=58	=58	=58	=58	=58	=58	=58	=58
2.r	2.r	[6..c#	[4c#	4A	4AA	4AA	4bb	4gg	2.A_	2.A_	2.r	2.r	2.r	2.r
.	.	.	16c#]	2r	2r	2r	4gg	4ee	.	.	.	.	.	.
.	.	48c#]	.	.	.	.	.	.	.	.	.	.	.	.
.	.	16e	16e	.	.	.	.	.	.	.	.	.	.	.
.	.	16d	16d	.	.	.	.	.	.	.	.	.	.	.
.	.	16f#	16f#	.	.	.	.	.	.	.	.	.	.	.
.	.	16e	16e	.	.	.	4r	4r	.	.	.	.	.	.
.	.	16g	16g	.	.	.	.	.	.	.	.	.	.	.
.	.	16f#	16f#	.	.	.	.	.	.	.	.	.	.	.
.	.	16a	16a	.	.	.	.	.	.	.	.	.	.	.
=59	=59	=59	=59	=59	=59	=59	=59	=59	=59	=59	=59	=59	=59	=59
2.r	2.r	[4g	[4g	4A	4AA	4AA	8cc#	8a	2.A_	2.A_	2.r	2.r	2.r	2.r
.	.	.	.	.	.	.	8dd	8b	.	.	.	.	.	.
.	.	8g]	8g]	2r	2r	2r	8ee	8cc#	.	.	.	.	.	.
.	.	8f#	8f#	.	.	.	8ff#	8dd	.	.	.	.	.	.
.	.	8e	8e	.	.	.	8gg	8ee	.	.	.	.	.	.
.	.	8d	8d	.	.	.	8aa	8ff#	.	.	.	.	.	.
=60	=60	=60	=60	=60	=60	=60	=60	=60	=60	=60	=60	=60	=60	=60
2.r	2.r	8c#	8c#	4A	4AA	4AA	8bb	8gg	8A]	8A]	2.r	2.r	2.r	2.r
.	.	8r	8r	.	.	.	8r	8r	2r	2r	.	.	.	.
.	.	8ee	8ee	2r	2r	2r	8gg	8ee	.	.	.	.	.	.
.	.	4.r	4.r	.	.	.	4.r	4.r	.	.	.	.	.	.
.	.	.	.	.	.	.	.	.	8r	8r	.	.	.	.
=61	=61	=61	=61	=61	=61	=61	=61	=61	=61	=61	=61	=61	=61	=61
4.ff	4D	16ff	16ff	4.f 4.A	4.D	4.D	4.ff	4.a	4D	4D	4.g	4.g	4.dd	4.dd
.	.	16dd	16dd	.	.	.	.	.	.	.	.	.	.	.
.	.	16a	16a	.	.	.	.	.	.	.	.	.	.	.
.	.	16dd	16dd	.	.	.	.	.	.	.	.	.	.	.
.	8r	16ff	16ff	.	.	.	.	.	4d	4d	.	.	.	.
.	.	16dd	16dd	.	.	.	.	.	.	.	.	.	.	.
8ff	8D	16ff	16ff	8f 8A	8D	8D	8ff	8a	.	.	8g	8g	8dd	8dd
.	.	16dd	16dd	.	.	.	.	.	.	.	.	.	.	.
8ff	8D	16ff	16ff	8A 8f	8D	8D	8ff	8a	4r	4r	8g	8g	8dd	8dd
.	.	16dd	16dd	.	.	.	.	.	.	.	.	.	.	.
8ff	8D	16ff	16ff	8f 8A	8D	8D	8ff	8a	.	.	8g	8g	8dd	8dd
.	.	16dd	16dd	.	.	.	.	.	.	.	.	.	.	.
=62	=62	=62	=62	=62	=62	=62	=62	=62	=62	=62	=62	=62	=62	=62
4.ff	4D	16ff	16ff	4.f 4.d	4.BB-	4.BB-	4.ff	4.dd	4BB-	4BB-	4.g	4.g	4.dd	4.dd
.	.	16dd	16dd	.	.	.	.	.	.	.	.	.	.	.
.	.	16b-	16b-	.	.	.	.	.	.	.	.	.	.	.
.	.	16dd	16dd	.	.	.	.	.	.	.	.	.	.	.
.	8r	16ff	16ff	.	.	.	.	.	4B-	4B-	.	.	.	.
.	.	16dd	16dd	.	.	.	.	.	.	.	.	.	.	.
8ff	8D	16ff	16ff	8f 8d	8BB-	8BB-	8ff	8dd	.	.	8g	8g	8dd	8dd
.	.	16dd	16dd	.	.	.	.	.	.	.	.	.	.	.
8ff	8D	16ff	16ff	8f 8d	8BB-	8BB-	8ff	8dd	4r	4r	8g	8g	8dd	8dd
.	.	16dd	16dd	.	.	.	.	.	.	.	.	.	.	.
8ff	8D	16ff	16ff	8f 8d	8BB-	8BB-	8ff	8dd	.	.	8g	8g	8dd	8dd
.	.	16dd	16dd	.	.	.	.	.	.	.	.	.	.	.
=63	=63	=63	=63	=63	=63	=63	=63	=63	=63	=63	=63	=63	=63	=63
4.bb-	4GG	16bb-	16bb-	4.g 4.B-	4.GG	4.GG	4.bb-	4.dd	4GG	4GG	4.g	4.g	4g	4g
.	.	16gg	16gg	.	.	.	.	.	.	.	.	.	.	.
.	.	16dd	16dd	.	.	.	.	.	.	.	.	.	.	.
.	.	16gg	16gg	.	.	.	.	.	.	.	.	.	.	.
.	2r	16bb-	16bb-	.	.	.	.	.	4G	4G	.	.	2r	2r
.	.	16gg	16gg	.	.	.	.	.	.	.	.	.	.	.
8bb-	.	16bb-	16bb-	8d	8GG	8GG	8bb-	8dd	.	.	8g	8g	.	.
.	.	16gg	16gg	.	.	.	.	.	.	.	.	.	.	.
8bb-	.	16bb-	16bb-	8d	8GG	8GG	8bb-	8dd	4r	4r	8g	8g	.	.
.	.	16gg	16gg	.	.	.	.	.	.	.	.	.	.	.
8bb-	.	16bb-	16bb-	8d	8GG	8GG	8bb-	8dd	.	.	8g	8g	.	.
.	.	16gg	16gg	.	.	.	.	.	.	.	.	.	.	.
=64	=64	=64	=64	=64	=64	=64	=64	=64	=64	=64	=64	=64	=64	=64
4.ee	2.r	16aa	16aa	4.c#	4.AA	4.AA	4.ee	4.cc#	4AA	4AA	4dd	4dd	2.r	2.r
.	.	16ee	16ee	.	.	.	.	.	.	.	.	.	.	.
.	.	16cc#	16cc#	.	.	.	.	.	.	.	.	.	.	.
.	.	16ee	16ee	.	.	.	.	.	.	.	.	.	.	.
.	.	16aa	16aa	.	.	.	.	.	4A	4A	2r	2r	.	.
.	.	16ee	16ee	.	.	.	.	.	.	.	.	.	.	.
8ee	.	16aa	16aa	8c#	8AA	8AA	8ee	8cc#	.	.	.	.	.	.
.	.	16ee	16ee	.	.	.	.	.	.	.	.	.	.	.
8ee	.	16aa	16aa	8c#	8AA	8AA	8ee	8cc#	4r	4r	.	.	.	.
.	.	16ee	16ee	.	.	.	.	.	.	.	.	.	.	.
8ee	.	16aa	16aa	8c#	8AA	8AA	8ee	8cc#	.	.	.	.	.	.
.	.	16ee	16ee	.	.	.	.	.	.	.	.	.	.	.
=65	=65	=65	=65	=65	=65	=65	=65	=65	=65	=65	=65	=65	=65	=65
16ff#	4D	16ff#	16ff#	8d	4D	4D	4ff#	4dd	8D	8D	2.r	2.r	4dd	4dd
16dd	.	16dd	16dd	.	.	.	.	.	.	.	.	.	.	.
16ee	.	16ee	16ee	16e	.	.	.	.	16E	16E	.	.	.	.
16ff#	.	16ff#	16ff#	16f#	.	.	.	.	16F#	16F#	.	.	.	.
16gg	2r	16gg	16gg	16g	2r	2r	2r	2r	16G	16G	.	.	2r	2r
16aa	.	16aa	16aa	16a	.	.	.	.	16A	16A	.	.	.	.
16bb	.	16bb	16bb	16b	.	.	.	.	16B	16B	.	.	.	.
16ccc#	.	16ccc#	16ccc#	16cc#	.	.	.	.	16c#	16c#	.	.	.	.
16ddd	.	16ddd	16ddd	16dd	.	.	.	.	16d	16d	.	.	.	.
16ccc#	.	16ccc#	16ccc#	16cc#	.	.	.	.	16c#	16c#	.	.	.	.
16ddd	.	16ddd	16ddd	16dd	.	.	.	.	16d	16d	.	.	.	.
16ccc#	.	16ccc#	16ccc#	16cc#	.	.	.	.	16c#	16c#	.	.	.	.
=66	=66	=66	=66	=66	=66	=66	=66	=66	=66	=66	=66	=66	=66	=66
16ddd	4D	16ddd	16ddd	16dd	8D	8D	2.r	2.r	8d	8d	2.r	2.r	4dd	4dd
16dd	.	16dd	16dd	16d	.	.	.	.	.	.	.	.	.	.
16ee	.	16ee	16ee	16e	16E	16E	.	.	16E	16E	.	.	.	.
16ff#	.	16ff#	16ff#	16f#	16F#	16F#	.	.	16F#	16F#	.	.	.	.
16gg	2r	16gg	16gg	16g	16G	16G	.	.	16G	16G	.	.	2r	2r
16aa	.	16aa	16aa	16a	16A	16A	.	.	16A	16A	.	.	.	.
16bb	.	16bb	16bb	16b	16B	16B	.	.	16B	16B	.	.	.	.
16ccc#	.	16ccc#	16ccc#	16cc#	16c#	16c#	.	.	16c#	16c#	.	.	.	.
16ddd	.	16ddd	16ddd	16dd	16d	16d	.	.	16d	16d	.	.	.	.
16ccc#	.	16ccc#	16ccc#	16cc#	16c#	16c#	.	.	16c#	16c#	.	.	.	.
16ddd	.	16ddd	16ddd	16dd	16d	16d	.	.	16d	16d	.	.	.	.
16ccc#	.	16ccc#	16ccc#	16cc#	16c#	16c#	.	.	16c#	16c#	.	.	.	.
=67	=67	=67	=67	=67	=67	=67	=67	=67	=67	=67	=67	=67	=67	=67
8ddd	4D	8ddd	8ddd	8dd	8d	8d	2.r	2.r	8d	8d	2.r	2.r	4dd	4dd
8aa#	.	8aa#	8aa#	8a#	8A#	8A#	.	.	8A#	8A#	.	.	.	.
16bb	2r	16bb	16bb	16b	16B	16B	.	.	16B	16B	.	.	2r	2r
16aa#	.	16aa#	16aa#	16a#	16A#	16A#	.	.	16A#	16A#	.	.	.	.
16bb	.	16bb	16bb	16b	16B	16B	.	.	16B	16B	.	.	.	.
16aa#	.	16aa#	16aa#	16a#	16A#	16A#	.	.	16A#	16A#	.	.	.	.
8bb	.	8bb	8bb	8b	8B	8B	.	.	8B	8B	.	.	.	.
8ff#	.	8ff#	8ff#	8f#	8F#	8F#	.	.	8F#	8F#	.	.	.	.
=68	=68	=68	=68	=68	=68	=68	=68	=68	=68	=68	=68	=68	=68	=68
16gg	2.r	16gg	16gg	16g	16G	16G	2.r	2.r	16G	16G	2.r	2.r	2.r	2.r
16ff#	.	16ff#	16ff#	16f#	16F#	16F#	.	.	16F#	16F#	.	.	.	.
16gg	.	16gg	16gg	16g	16G	16G	.	.	16G	16G	.	.	.	.
16ff#	.	16ff#	16ff#	16f#	16F#	16F#	.	.	16F#	16F#	.	.	.	.
8gg	.	8gg	8gg	8g	8G	8G	.	.	8G	8G	.	.	.	.
8dd#	.	8dd#	8dd#	8d#	8D#	8D#	.	.	8D#	8D#	.	.	.	.
8ee	.	8ee	8ee	8e	8E	8E	.	.	8E	8E	.	.	.	.
8gg	.	8gg	8gg	8g	8G	8G	.	.	8G	8G	.	.	.	.
=69	=69	=69	=69	=69	=69	=69	=69	=69	=69	=69	=69	=69	=69	=69
4b-	2.r	[6..b-	4b-	4B-	4BB-	4BB-	2.r	2.r	4BB-	4BB-	2.r	2.r	2.r	2.r
16a	.	.	16a	4A	4AA	4AA	.	.	4AA	4AA	.	.	.	.
.	.	48b-]	.	.	.	.	.	.	.	.	.	.	.	.
16cc#	.	16cc#	16cc#	.	.	.	.	.	.	.	.	.	.	.
16ee	.	16ee	16ee	.	.	.	.	.	.	.	.	.	.	.
16dd	.	16dd	16dd	.	.	.	.	.	.	.	.	.	.	.
16cc#	.	16cc#	16cc#	4c#	4C#	4C#	.	.	4C#	4C#	.	.	.	.
16b	.	16b	16b	.	.	.	.	.	.	.	.	.	.	.
16a	.	16a	16a	.	.	.	.	.	.	.	.	.	.	.
16g	.	16g	16g	.	.	.	.	.	.	.	.	.	.	.
=70	=70	=70	=70	=70	=70	=70	=70	=70	=70	=70	=70	=70	=70	=70
16f#	4D	16f#	16f#	2d	2D	2D	2aa	2ff#	2D	2D	2.r	2.r	2.dd	2.dd
16a	.	16a	16a	.	.	.	.	.	.	.	.	.	.	.
16b	.	16b	16b	.	.	.	.	.	.	.	.	.	.	.
16cc#	.	16cc#	16cc#	.	.	.	.	.	.	.	.	.	.	.
16dd	8D	16dd	16dd	.	.	.	.	.	.	.	.	.	.	.
16ee	.	16ee	16ee	.	.	.	.	.	.	.	.	.	.	.
16ff#	8D	16ff#	16ff#	.	.	.	.	.	.	.	.	.	.	.
16gg	.	16gg	16gg	.	.	.	.	.	.	.	.	.	.	.
16aa	8D	16aa	16aa	4f#	4F#	4F#	4ddd	4aa	4F#	4F#	.	.	.	.
16bb	.	16bb	16bb	.	.	.	.	.	.	.	.	.	.	.
16ccc#	8D	16ccc#	16ccc#	.	.	.	.	.	.	.	.	.	.	.
16ddd	.	16ddd	16ddd	.	.	.	.	.	.	.	.	.	.	.
=71	=71	=71	=71	=71	=71	=71	=71	=71	=71	=71	=71	=71	=71	=71
8bb	4GG	8bb	8bb	8g	8G	8G	8bb	8gg	8G	8G	2.r	2.r	4dd	4g
8r	.	8r	8r	8r	8r	8r	8r	8r	8r	8r	.	.	.	.
8aa	2r	8aa	8aa	8f#	8A	8A	8aa	8ff#	8A	8A	.	.	2r	2r
8r	.	8r	8r	8r	8r	8r	8r	8r	8r	8r	.	.	.	.
8cc#	.	8cc#	8cc#	8e	8AA	8AA	8cc#	8ee	8AA	8AA	.	.	.	.
8r	.	8r	8r	8r	8r	8r	8r	8r	8r	8r	.	.	.	.
=72	=72	=72	=72	=72	=72	=72	=72	=72	=72	=72	=72	=72	=72	=72
4dd	2.r	8dd	8f#	8d	4D	4D	4dd	4dd	4D	4D	2.r	2.r	2.r	2.r
.	.	8r	8A	8A	.	.	.	.	.	.	.	.	.	.
2r	.	8dd	8f#	8d	2r	2r	2r	2r	2r	2r	.	.	.	.
.	.	8r	8A	8A	.	.	.	.	.	.	.	.	.	.
.	.	8dd	8f#	8d	.	.	.	.	.	.	.	.	.	.
.	.	16cc#	8A	8A	.	.	.	.	.	.	.	.	.	.
.	.	16dd	.	.	.	.	.	.	.	.	.	.	.	.
=73	=73	=73	=73	=73	=73	=73	=73	=73	=73	=73	=73	=73	=73	=73
2.r	2.r	8ee	8g	8G	4GG	4GG	2.r	2.r	2.r	2.r	2.r	2.r	2.r	2.r
.	.	8r	8B	8B	.	.	.	.	.	.	.	.	.	.
.	.	8ee	8g	8e	2r	2r	.	.	.	.	.	.	.	.
.	.	4.r	8B	8B	.	.	.	.	.	.	.	.	.	.
.	.	.	8g	8e	.	.	.	.	.	.	.	.	.	.
.	.	.	8B	8B	.	.	.	.	.	.	.	.	.	.
=74	=74	=74	=74	=74	=74	=74	=74	=74	=74	=74	=74	=74	=74	=74
2.r	2.r	8a	8e	8c#	4AA	4AA	2.r	2.r	2.r	2.r	2.r	2.r	2.r	2.r
.	.	8r	8c#	8A	.	.	.	.	.	.	.	.	.	.
.	.	8a	8e	8c#	2r	2r	.	.	.	.	.	.	.	.
.	.	8r	8c#	8A	.	.	.	.	.	.	.	.	.	.
.	.	8a	8e	8c#	.	.	.	.	.	.	.	.	.	.
.	.	16g#	8c#	8A	.	.	.	.	.	.	.	.	.	.
.	.	16a	.	.	.	.	.	.	.	.	.	.	.	.
=75	=75	=75	=75	=75	=75	=75	=75	=75	=75	=75	=75	=75	=75	=75
2.r	2.r	8d	8f#	8d	4D	4D	4r	4r	2.r	2.r	2.r	2.r	2.r	2.r
.	.	8r	8A	8A	.	.	.	.	.	.	.	.	.	.
.	.	8d	8f#	8d	2r	2r	8ff#	8dd	.	.	.	.	.	.
.	.	4.r	8A	8A	.	.	8r	8r	.	.	.	.	.	.
.	.	.	8f#	8d	.	.	8aa	8ff#	.	.	.	.	.	.
.	.	.	8A	8A	.	.	8r	8r	.	.	.	.	.	.
=76	=76	=76	=76	=76	=76	=76	=76	=76	=76	=76	=76	=76	=76	=76
4r	2.r	8dd	8f#	8d	4D	4D	4ff#	4dd	8f#	8A	2.r	2.r	2.r	2.r
.	.	8r	8A	8A	.	.	.	.	8r	8r	.	.	.	.
16ddd	.	8dd	8f#	8d	2r	2r	2r	2r	8f#	8A	.	.	.	.
16ccc#	.	.	.	.	.	.	.	.	.	.	.	.	.	.
16bb	.	8r	8A	8A	.	.	.	.	4.r	4.r	.	.	.	.
16aa	.	.	.	.	.	.	.	.	.	.	.	.	.	.
16gg	.	8dd	8f#	8d	.	.	.	.	.	.	.	.	.	.
16ff#	.	.	.	.	.	.	.	.	.	.	.	.	.	.
16ee	.	16cc#	8A	8A	.	.	.	.	.	.	.	.	.	.
16dd	.	16dd	.	.	.	.	.	.	.	.	.	.	.	.
=77	=77	=77	=77	=77	=77	=77	=77	=77	=77	=77	=77	=77	=77	=77
4ee	2.r	8ee	8g	8G	4GG	4GG	2.r	2.r	8g	8B	2.r	2.r	2.r	2.r
.	.	8r	8B	8B	.	.	.	.	8r	8r	.	.	.	.
2r	.	8ee	8g	8e	2r	2r	.	.	8g	8B	.	.	.	.
.	.	4.r	8B	8B	.	.	.	.	4.r	4.r	.	.	.	.
.	.	.	8g	8e	.	.	.	.	.	.	.	.	.	.
.	.	.	8B	8B	.	.	.	.	.	.	.	.	.	.
=78	=78	=78	=78	=78	=78	=78	=78	=78	=78	=78	=78	=78	=78	=78
4r	2.r	8a	8e	8c#	4AA	4AA	2.r	2.r	8e	8c#	2.r	2.r	2.r	2.r
.	.	8r	8c#	8A	.	.	.	.	8r	8r	.	.	.	.
16cc#	.	8a	8e	8c#	2r	2r	.	.	8e	8c#	.	.	.	.
16dd	.	.	.	.	.	.	.	.	.	.	.	.	.	.
16ee	.	8r	8c#	8A	.	.	.	.	4.r	4.r	.	.	.	.
16ff#	.	.	.	.	.	.	.	.	.	.	.	.	.	.
16gg	.	8a	8e	8c#	.	.	.	.	.	.	.	.	.	.
16aa	.	.	.	.	.	.	.	.	.	.	.	.	.	.
16bb	.	16g#	8c#	8A	.	.	.	.	.	.	.	.	.	.
16ccc#	.	16a	.	.	.	.	.	.	.	.	.	.	.	.
=79	=79	=79	=79	=79	=79	=79	=79	=79	=79	=79	=79	=79	=79	=79
4ddd	2.r	8d	4f#	4d	4D	4D	2r	2r	4f#	4d	2r	2r	2.r	2.r
.	.	8r	.	.	.	.	.	.	.	.	.	.	.	.
4r	.	16cc#	4r	4r	4r	4r	.	.	4r	4r	.	.	.	.
.	.	16dd	.	.	.	.	.	.	.	.	.	.	.	.
.	.	16ee	.	.	.	.	.	.	.	.	.	.	.	.
.	.	16ff#	.	.	.	.	.	.	.	.	.	.	.	.
4ccc#	.	16gg	4a 4gg	4e 4A	4A	4A	4ccc#	4ee	4e	4c#	4dd	4dd	.	.
.	.	16aa	.	.	.	.	.	.	.	.	.	.	.	.
.	.	16bb	.	.	.	.	.	.	.	.	.	.	.	.
.	.	16ccc#	.	.	.	.	.	.	.	.	.	.	.	.
=80	=80	=80	=80	=80	=80	=80	=80	=80	=80	=80	=80	=80	=80	=80
4ddd	4D	8ddd	4ff# 4d 4a	4f# 4A	4D	4D	4ddd	4ff#	4f#	4d	4dd	4dd	4dd	4dd
.	.	8r	.	.	.	.	.	.	.	.	.	.	.	.
4r	2r	16cc#	4r	4r	4r	4r	4r	4r	4r	4r	4r	4r	2r	2r
.	.	16dd	.	.	.	.	.	.	.	.	.	.	.	.
.	.	16ee	.	.	.	.	.	.	.	.	.	.	.	.
.	.	16ff#	.	.	.	.	.	.	.	.	.	.	.	.
4ccc#	.	16gg	4gg 4a	4e 4A	4A	4A	4ccc#	4ee	4e	4c#	4dd	4dd	.	.
.	.	16aa	.	.	.	.	.	.	.	.	.	.	.	.
.	.	16bb	.	.	.	.	.	.	.	.	.	.	.	.
.	.	16ccc#	.	.	.	.	.	.	.	.	.	.	.	.
=81	=81	=81	=81	=81	=81	=81	=81	=81	=81	=81	=81	=81	=81	=81
8ddd	4D	8ddd	8ff# 8a	8f# 8A	8D	8D	8ddd	8ff#	8f#	8d	4dd	4dd	4dd	4dd
8ccc#	.	8ccc#	8gg 8a	8A 8e	8AA	8AA	8gg	8ee	8e	8c#	.	.	.	.
8ddd	4D	8ddd	8ff# 8a	8f# 8A	8D	8D	8ff#	8ff#	8f#	8d	8r	8r	4dd	4dd
8ccc#	.	8ccc#	8gg 8a	8e 8A	8AA	8AA	8gg	8ee	8e	8c#	8dd	8dd	.	.
8ddd	4D	8ddd	8a 8ff#	8f# 8A	8D	8D	8ff#	8ff#	8f#	8d	8dd	8dd	4dd	4dd
8ccc#	.	8ccc#	8a 8gg	8e 8A	8AA	8AA	8gg	8ee	8e	8c#	8dd	8dd	.	.
=82	=82	=82	=82	=82	=82	=82	=82	=82	=82	=82	=82	=82	=82	=82
4ddd	4D	4ddd	4ff# 4a	4f# 4A	4D	4D	4ff#	4ff#	4f#	4d	4dd	4dd	4dd	4dd
2r	2r	2r	2r	2r	2r	2r	2r	2r	2r	2r	2r	2r	2r	2r
=83	=83	=83	=83	=83	=83	=83	=83	=83	=83	=83	=83	=83	=83	=83
2.r	2.r	4B	4B	4B	4BB	4BB	4b	4b	4B	4B	2.r	2.r	2.r	2.r
.	.	4B	4B	4B	4BB	4BB	4b	4b	4B	4B	.	.	.	.
.	.	8B	8B	8B	8BB	8BB	8b	8b	8B	8B	.	.	.	.
.	.	16A	16A	16A	16AA	16AA	16a	16a	16A	16A	.	.	.	.
.	.	16B	16B	16B	16BB	16BB	16b	16b	16B	16B	.	.	.	.
=84	=84	=84	=84	=84	=84	=84	=84	=84	=84	=84	=84	=84	=84	=84
2.r	2.r	4c	4c	4c	4C	4C	4cc	4cc	4c	4c	2.r	2.r	2.r	2.r
.	.	4c	4c	4c	4C	4C	4cc	4cc	4c	4c	.	.	.	.
.	.	4r	4r	4r	4r	4r	4r	4r	4r	4r	.	.	.	.
=85	=85	=85	=85	=85	=85	=85	=85	=85	=85	=85	=85	=85	=85	=85
2.r	2.r	8f#	8d#	8c	8A	8A	2.r	2.r	2.r	2.r	2.r	2.r	2.r	2.r
.	.	8r	8r	8r	8r	8r	.	.	.	.	.	.	.	.
.	.	8f#	8d#	8c	8A	8A	.	.	.	.	.	.	.	.
.	.	8r	8r	8r	8r	8r	.	.	.	.	.	.	.	.
.	.	8f#	8d#	8c	8A	8A	.	.	.	.	.	.	.	.
.	.	16e	8r	8r	8r	8r	.	.	.	.	.	.	.	.
.	.	16f#	.	.	.	.	.	.	.	.	.	.	.	.
=86	=86	=86	=86	=86	=86	=86	=86	=86	=86	=86	=86	=86	=86	=86
2.r	2.r	8g	8e	8B	8G	8G	2.r	2.r	2.r	2.r	2.r	2.r	2.r	2.r
.	.	8r	8r	8r	8r	8r	.	.	.	.	.	.	.	.
.	.	8g	8e	8B	8G	8G	.	.	.	.	.	.	.	.
.	.	4.r	4.r	4.r	4.r	4.r	.	.	.	.	.	.	.	.
=87	=87	=87	=87	=87	=87	=87	=87	=87	=87	=87	=87	=87	=87	=87
2.r	2.r	4a# 4ee	4g	4A#	4C	4C	2.r	2.r	2.r	2.r	2.r	2.r	2.r	2.r
.	.	4ee 4a#	4g	4A#	4C	4C	.	.	.	.	.	.	.	.
.	.	4r	4r	4r	4r	4r	.	.	.	.	.	.	.	.
=88	=88	=88	=88	=88	=88	=88	=88	=88	=88	=88	=88	=88	=88	=88
2.r	2.r	4dd#	4f#	4B	4BB	4BB	8dd#	8b	2.r	2.r	2.r	2.r	2.r	2.r
.	.	.	.	.	.	.	8ee	8cc#	.	.	.	.	.	.
.	.	2r	2r	2r	2r	2r	8ff#	8dd#	.	.	.	.	.	.
.	.	.	.	.	.	.	8gg	8ee	.	.	.	.	.	.
.	.	.	.	.	.	.	4aa	4ff#	.	.	.	.	.	.
=89	=89	=89	=89	=89	=89	=89	=89	=89	=89	=89	=89	=89	=89	=89
2.r	2.r	[4cc	[4a	2.r	2.r	2.r	8ff#	8dd#	2.r	2.r	2.r	2.r	2.r	2.r
.	.	.	.	.	.	.	8gg	8ee	.	.	.	.	.	.
.	.	8cc]	8a]	.	.	.	8aa	8ff#	.	.	.	.	.	.
.	.	8b	8g	.	.	.	8bb	8gg	.	.	.	.	.	.
.	.	8a	8f#	.	.	.	[4ccc	[4aa	.	.	.	.	.	.
.	.	8g	8e	.	.	.	.	.	.	.	.	.	.	.
=90	=90	=90	=90	=90	=90	=90	=90	=90	=90	=90	=90	=90	=90	=90
2.r	2.r	8f#	8d#	2.r	2.r	2.r	4ccc]	4aa]	2.r	2.r	2.r	2.r	2.r	2.r
.	.	8g	8e	.	.	.	.	.	.	.	.	.	.	.
.	.	8a	8f#	.	.	.	4bb	4gg	.	.	.	.	.	.
.	.	8b	8g	.	.	.	.	.	.	.	.	.	.	.
.	.	8cc	8a	.	.	.	4aa	4ff#	.	.	.	.	.	.
.	.	8b	8f#	.	.	.	.	.	.	.	.	.	.	.
=91	=91	=91	=91	=91	=91	=91	=91	=91	=91	=91	=91	=91	=91	=91
2.r	2.r	4g#	4d	2.r	2.r	2.r	8gg#	8b	[4f	[4d	2.r	2.r	2.r	2.r
.	.	.	.	.	.	.	8aa	8cc	.	.	.	.	.	.
.	.	2r	2r	.	.	.	8bb	8dd	8f]	8d]	.	.	.	.
.	.	.	.	.	.	.	8ccc	8ee	8e	8c	.	.	.	.
.	.	.	.	.	.	.	[4ddd	[4ff	8d	8B	.	.	.	.
.	.	.	.	.	.	.	.	.	8c	8A	.	.	.	.
=92	=92	=92	=92	=92	=92	=92	=92	=92	=92	=92	=92	=92	=92	=92
2.r	2.r	2.r	2.r	2.r	2.r	2.r	4ddd]	4ff]	4B	4G#	2.r	2.r	2.r	2.r
.	.	.	.	.	.	.	4ccc	4ee	4c	4A	.	.	.	.
.	.	.	.	.	.	.	4bb	4dd	4d	4B	.	.	.	.
=93	=93	=93	=93	=93	=93	=93	=93	=93	=93	=93	=93	=93	=93	=93
2.r	2.r	2.r	2.r	2.r	2.r	2.r	8aa	8cc	8e	8c	2.r	2.r	2.r	2.r
.	.	.	.	.	.	.	8gg#	8b	8f	8d	.	.	.	.
.	.	.	.	.	.	.	8aa	8cc	8e	8c	.	.	.	.
.	.	.	.	.	.	.	8bb	8dd	8d	8B	.	.	.	.
.	.	.	.	.	.	.	[4ccc	[4ee	8c	8A	.	.	.	.
.	.	.	.	.	.	.	.	.	8B	8G	.	.	.	.
=94	=94	=94	=94	=94	=94	=94	=94	=94	=94	=94	=94	=94	=94	=94
2.r	2.r	2.r	2.r	2.r	2.r	2.r	4ccc]	4ee]	4A	4F#	2.r	2.r	2.r	2.r
.	.	.	.	.	.	.	4bb	4dd	4B	4G	.	.	.	.
.	.	.	.	.	.	.	4aa	4cc	4c	4A	.	.	.	.
=95	=95	=95	=95	=95	=95	=95	=95	=95	=95	=95	=95	=95	=95	=95
4.ddd	4D	2.r	4.dd 4.d	4r	4r	2.r	4gg	4b	4B	4G	4r	4r	2.dd	2.dd
.	4D	.	.	4f#	4f#	.	2r	2r	2r	2r	4dd	4g	.	.
8ccc	.	.	8cc	.	.	.	.	.	.	.	.	.	.	.
8bb	4D	.	8b	8f#	8f#	.	.	.	.	.	4dd	4g	.	.
8aa	.	.	8a	16e	16e	.	.	.	.	.	.	.	.	.
.	.	.	.	16f#	16f#	.	.	.	.	.	.	.	.	.
=96	=96	=96	=96	=96	=96	=96	=96	=96	=96	=96	=96	=96	=96	=96
4.bb	4GG	4.bb 4.b	4b	4g	4g	2.r	2.r	2.r	4r	4r	4ee	4cc	4dd	4g
.	2r	.	4dd#	2r	2r	.	.	.	4f#	4d#	2r	2r	2r	2r
8aa	.	8aa	.	.	.	.	.	.	.	.	.	.	.	.
8gg	.	8gg	8dd#	.	.	.	.	.	4f#	4d#	.	.	.	.
8ff#	.	8ff#	16cc#	.	.	.	.	.	.	.	.	.	.	.
.	.	.	16dd#	.	.	.	.	.	.	.	.	.	.	.
=97	=97	=97	=97	=97	=97	=97	=97	=97	=97	=97	=97	=97	=97	=97
4.gg	4GG	8gg	4ee	4r	4r	4r	2.r	2.r	4g	4e	4r	4r	2.dd	2.g
.	.	4gg	.	.	.	.	.	.	.	.	.	.	.	.
.	4GG	.	2r	4g	4B	4B	.	.	2r	2r	4cc	4c	.	.
8ff	.	8ff	.	.	.	.	.	.	.	.	.	.	.	.
8ee	4GG	8ee	.	4g	8B	8B	.	.	.	.	4cc	4c	.	.
8dd#	.	8dd#	.	.	16A	16A	.	.	.	.	.	.	.	.
.	.	.	.	.	16B	16B	.	.	.	.	.	.	.	.
=98	=98	=98	=98	=98	=98	=98	=98	=98	=98	=98	=98	=98	=98	=98
8ee	4GG	8ee	4r	4g	4c	4c	2.r	2.r	4r	4r	4cc	4c	4ee	4cc
4eee	.	4ee	.	.	.	.	.	.	.	.	.	.	.	.
.	2r	.	4g#	4e	2r	2r	.	.	4e	4e	2r	2r	2r	2r
8ddd	.	8dd	.	.	.	.	.	.	.	.	.	.	.	.
8ccc	.	8cc	8g#	4e	.	.	.	.	4e	4e	.	.	.	.
8bb	.	8b	16f#	.	.	.	.	.	.	.	.	.	.	.
.	.	.	16g#	.	.	.	.	.	.	.	.	.	.	.
=99	=99	=99	=99	=99	=99	=99	=99	=99	=99	=99	=99	=99	=99	=99
4ccc	2.r	4cc	4a	8e	8AA	4.AA	2.r	2.r	4A	4A	2.r	2.r	2.r	2.r
.	.	.	.	4c	4c	.	.	.	.	.	.	.	.	.
2r	.	2r	4.cc	.	.	.	.	.	2r	2r	.	.	.	.
.	.	.	.	8B	8B	8BB	.	.	.	.	.	.	.	.
.	.	.	.	8A	8A	8C	.	.	.	.	.	.	.	.
.	.	.	8b	8G	8G	8C#	.	.	.	.	.	.	.	.
=100	=100	=100	=100	=100	=100	=100	=100	=100	=100	=100	=100	=100	=100	=100
2.r	4D	2.r	8a	8F#	8F#	4.D	2.r	2.r	2.r	2.r	2.r	2.r	2.dd	2.dd
.	.	.	8g	4d	4d	.	.	.	.	.	.	.	.	.
.	4D	.	8f#	.	.	.	.	.	.	.	.	.	.	.
.	.	.	4dd	8c	8c	8D	.	.	.	.	.	.	.	.
.	4D	.	.	8B	8B	8E	.	.	.	.	.	.	.	.
.	.	.	8cc	8A	8A	8F#	.	.	.	.	.	.	.	.
=101	=101	=101	=101	=101	=101	=101	=101	=101	=101	=101	=101	=101	=101	=101
2.r	4GG	2r	8b	8G	8G	4G	2.r	2.r	2.r	2.r	2.r	2.r	4dd	4g
.	.	.	8a	4e	4e	.	.	.	.	.	.	.	.	.
.	2r	.	8g	.	.	2r	.	.	.	.	.	.	2r	2r
.	.	.	4ee	8d	8d	.	.	.	.	.	.	.	.	.
.	.	[4ee	.	8c	8c	.	.	.	.	.	.	.	.	.
.	.	.	8dd	8B	8B	.	.	.	.	.	.	.	.	.
=102	=102	=102	=102	=102	=102	=102	=102	=102	=102	=102	=102	=102	=102	=102
2.r	2.r	8ee]	8cc	8A	4.A	4.A	2.r	2.r	2.r	2.r	2.r	2.r	2.r	2.r
.	.	8dd	8b	4a	.	.	.	.	.	.	.	.	.	.
.	.	8cc	8a	.	.	.	.	.	.	.	.	.	.	.
.	.	8b	4aa	8g	8G	8G	.	.	.	.	.	.	.	.
.	.	8a	.	8f#	8F#	8F#	.	.	.	.	.	.	.	.
.	.	[8aa	8gg	8e	8E	8E	.	.	.	.	.	.	.	.
=103	=103	=103	=103	=103	=103	=103	=103	=103	=103	=103	=103	=103	=103	=103
2.r	2.r	8aa]	8ff#	4d	4D	4D	2.r	2.r	2.r	2.r	2.r	2.r	2.r	2.r
.	.	8gg	8ee	.	.	.	.	.	.	.	.	.	.	.
.	.	8ff#	8dd	4r	4r	4r	.	.	.	.	.	.	.	.
.	.	8ee	8cc	.	.	.	.	.	.	.	.	.	.	.
.	.	8dd	8b	8g	[4f	[4f	.	.	.	.	.	.	.	.
.	.	8cc	8a	8a	.	.	.	.	.	.	.	.	.	.
=104	=104	=104	=104	=104	=104	=104	=104	=104	=104	=104	=104	=104	=104	=104
2.r	2.r	4b	8g	4b	8f]	8f]	2.r	2.r	2.r	2.r	2.r	2.r	2.r	2.r
.	.	.	8a	.	8e	8e	.	.	.	.	.	.	.	.
.	.	4.ddd	8b	2r	8d	8d	.	.	.	.	.	.	.	.
.	.	.	8cc	.	8c	8c	.	.	.	.	.	.	.	.
.	.	.	8dd	.	8B	8B	.	.	.	.	.	.	.	.
.	.	8ccc	8ee	.	8A	8A	.	.	.	.	.	.	.	.
=105	=105	=105	=105	=105	=105	=105	=105	=105	=105	=105	=105	=105	=105	=105
2.r	2.r	8bb	4.ff	8b	4G#	4G#	2.r	2.r	8B	8G#	2.r	2.r	2.r	2.r
.	.	8aa	.	8cc	.	.	.	.	8c	8A	.	.	.	.
.	.	8gg#	.	8dd	4r	4r	.	.	8d	8B	.	.	.	.
.	.	8ff	8dd	8g#	.	.	.	.	8B	8G#	.	.	.	.
.	.	8ee	8cc	8a	[4A	[4A	.	.	8c	8A	.	.	.	.
.	.	8dd	8b	8b	.	.	.	.	8d	8B	.	.	.	.
=106	=106	=106	=106	=106	=106	=106	=106	=106	=106	=106	=106	=106	=106	=106
2.r	2.r	4cc	8a	4cc	8A]	8A]	4r	4r	4e	4c	2.r	2.r	2.r	2.r
.	.	.	8b	.	8G	8G	.	.	.	.	.	.	.	.
.	.	4.aa	4.cc	2r	8F#	8F#	8a	8a	2r	2r	.	.	.	.
.	.	.	.	.	8E	8E	8b	8b	.	.	.	.	.	.
.	.	.	.	.	4D#	4D#	[4cc	[4cc	.	.	.	.	.	.
.	.	8gg	8b	.	.	.	.	.	.	.	.	.	.	.
=107	=107	=107	=107	=107	=107	=107	=107	=107	=107	=107	=107	=107	=107	=107
2.r	2.r	8ff#	8a	8d#	4.B	4.B	8cc]	8cc]	8d#	8d#	2.r	2.r	2.r	2.r
.	.	8ee	8g	8e	.	.	8b	8b	8e	8e	.	.	.	.
.	.	8dd#	8f#	8f#	.	.	8a	8a	8f#	8f#	.	.	.	.
.	.	8ff#	8cc	8d#	8A	8A	8cc	8cc	8d#	8d#	.	.	.	.
.	.	8bb	8b	8e	8G	8G	8b	8b	8e	8e	.	.	.	.
.	.	8aa	8aa	8f#	8F#	8F#	8dd#	8dd#	8f#	8f#	.	.	.	.
=108	=108	=108	=108	=108	=108	=108	=108	=108	=108	=108	=108	=108	=108	=108
4r	2.r	16gg	16gg	4g	8E	8E	4r	4r	4g	4g	2.r	2.r	2.r	2.r
.	.	16aa	16aa	.	.	.	.	.	.	.	.	.	.	.
.	.	16ff#	16ff#	.	8B	8B	.	.	.	.	.	.	.	.
.	.	16gg	16gg	.	.	.	.	.	.	.	.	.	.	.
4ee	.	16ee	16ee	2r	8c	8c	2ee	2ee	2r	2r	.	.	.	.
.	.	16ff#	16ff#	.	.	.	.	.	.	.	.	.	.	.
.	.	16dd	16dd	.	8B	8B	.	.	.	.	.	.	.	.
.	.	16ee	16ee	.	.	.	.	.	.	.	.	.	.	.
8ccc	.	16cc	16cc	.	8A	8A	.	.	.	.	.	.	.	.
.	.	16dd	16dd	.	.	.	.	.	.	.	.	.	.	.
8bb	.	16b	16b	.	8G	8G	.	.	.	.	.	.	.	.
.	.	16cc	16cc	.	.	.	.	.	.	.	.	.	.	.
=109	=109	=109	=109	=109	=109	=109	=109	=109	=109	=109	=109	=109	=109	=109
8aa	2.r	16a	16a	2.r	8F#	8F#	8dd#	8dd#	2.r	2.r	2.r	2.r	2.r	2.r
.	.	16b	16b	.	.	.	.	.	.	.	.	.	.	.
8gg	.	16g	16g	.	8E	8E	8ee	8ee	.	.	.	.	.	.
.	.	16a	16a	.	.	.	.	.	.	.	.	.	.	.
8ff#	.	16f#	16f#	.	8D#	8D#	8ff#	8ff#	.	.	.	.	.	.
.	.	16g	16g	.	.	.	.	.	.	.	.	.	.	.
8ee	.	16e	16e	.	8C#	8C#	8gg	8gg	.	.	.	.	.	.
.	.	16f#	16f#	.	.	.	.	.	.	.	.	.	.	.
8dd#	.	16d#	16d#	.	8BB	8BB	8aa	8aa	.	.	.	.	.	.
.	.	16f#	16f#	.	.	.	.	.	.	.	.	.	.	.
8bb	.	16b	16b	.	8D#	8D#	8ff#	8ff#	.	.	.	.	.	.
.	.	16a	16a	.	.	.	.	.	.	.	.	.	.	.
=110	=110	=110	=110	=110	=110	=110	=110	=110	=110	=110	=110	=110	=110	=110
4.bb	4GG	16g	16g	4.e	4.E	4.E	4.gg	4.b	4EE	4EE	4.cc	4.c	4.g	4.g
.	.	16e	16e	.	.	.	.	.	.	.	.	.	.	.
.	.	16B	16B	.	.	.	.	.	.	.	.	.	.	.
.	.	16e	16e	.	.	.	.	.	.	.	.	.	.	.
.	2r	16g	16g	.	.	.	.	.	4B	4G	.	.	.	.
.	.	16e	16e	.	.	.	.	.	.	.	.	.	.	.
8bb	.	16g	16g	8e	8E	8E	8gg	8b	.	.	8cc	8c	8g	8g
.	.	16e	16e	.	.	.	.	.	.	.	.	.	.	.
8bb	.	16g	16g	8e	8E	8E	8gg	8b	4r	4r	8cc	8c	8g	8g
.	.	16e	16e	.	.	.	.	.	.	.	.	.	.	.
8bb	.	16g	16g	8e	8E	8E	8gg	8b	.	.	8cc	8c	8g	8g
.	.	16e	16e	.	.	.	.	.	.	.	.	.	.	.
=111	=111	=111	=111	=111	=111	=111	=111	=111	=111	=111	=111	=111	=111	=111
4.ccc	4GG	16g	16g	4.c	4.C	4.C	4.gg	4.ee	4E	4C	4.cc	4.c	4.cc	4.e
.	.	16e	16e	.	.	.	.	.	.	.	.	.	.	.
.	.	16c	16c	.	.	.	.	.	.	.	.	.	.	.
.	.	16e	16e	.	.	.	.	.	.	.	.	.	.	.
.	2r	16g	16g	.	.	.	.	.	4e	4c	.	.	.	.
.	.	16e	16e	.	.	.	.	.	.	.	.	.	.	.
8ccc	.	16g	16g	8c	8C	8C	8gg	8ee	.	.	8cc	8c	8cc	8e
.	.	16e	16e	.	.	.	.	.	.	.	.	.	.	.
8ccc	.	16g	16g	8c	8C	8C	8gg	8ee	4r	4r	8cc	8c	8cc	8e
.	.	16e	16e	.	.	.	.	.	.	.	.	.	.	.
8ccc	.	16g	16g	8c	8C	8C	8gg	8ee	.	.	8cc	8c	8cc	8e
.	.	16e	16e	.	.	.	.	.	.	.	.	.	.	.
=112	=112	=112	=112	=112	=112	=112	=112	=112	=112	=112	=112	=112	=112	=112
4.ddd	4GG	16g	16g	4.d 4.G	4.BB	4.BB	4.gg	4.ff	4D	4BB	4.cc	4.c	4.dd	4.g
.	.	16f	16f	.	.	.	.	.	.	.	.	.	.	.
.	.	16d	16d	.	.	.	.	.	.	.	.	.	.	.
.	.	16f	16f	.	.	.	.	.	.	.	.	.	.	.
.	2r	16g	16g	.	.	.	.	.	4d	4d	.	.	.	.
.	.	16f	16f	.	.	.	.	.	.	.	.	.	.	.
8ddd	.	16g	16g	8d 8G	8BB	8BB	8gg	8ff	.	.	8cc	8c	8dd	8g
.	.	16f	16f	.	.	.	.	.	.	.	.	.	.	.
8ddd	.	16g	16g	8d 8G	8BB	8BB	8gg	8ff	4r	4r	8cc	8c	8dd	8g
.	.	16f	16f	.	.	.	.	.	.	.	.	.	.	.
8ddd	.	16g	16g	8d 8G	8BB	8BB	8gg	8ff	.	.	8cc	8c	8dd	8g
.	.	16f	16f	.	.	.	.	.	.	.	.	.	.	.
=113	=113	=113	=113	=113	=113	=113	=113	=113	=113	=113	=113	=113	=113	=113
4.ccc	2.r	16g	16g	4.e 4.G	4.BB-	4.BB-	4.gg	4.ee	4E	4BB-	4.cc	4.c	4ee	4cc
.	.	16e	16e	.	.	.	.	.	.	.	.	.	.	.
.	.	16c	16c	.	.	.	.	.	.	.	.	.	.	.
.	.	16e	16e	.	.	.	.	.	.	.	.	.	.	.
.	.	16g	16g	.	.	.	.	.	4g	4e	.	.	2r	2r
.	.	16e	16e	.	.	.	.	.	.	.	.	.	.	.
8ccc	.	16g	16g	8e 8G	8BB-	8BB-	8gg	8ee	.	.	8cc	8c	.	.
.	.	16e	16e	.	.	.	.	.	.	.	.	.	.	.
8ccc	.	16g	16g	8G 8e	8BB-	8BB-	8gg	8ee	4r	4r	8cc	8c	.	.
.	.	16e	16e	.	.	.	.	.	.	.	.	.	.	.
8ccc	.	16g	16g	8G 8e	8BB-	8BB-	8gg	8ee	.	.	8cc	8c	.	.
.	.	16e	16e	.	.	.	.	.	.	.	.	.	.	.
=114	=114	=114	=114	=114	=114	=114	=114	=114	=114	=114	=114	=114	=114	=114
2.eee	2.r	16g	16g	4.e 4.c#	4.AA	4.AA	2.gg	2.cc#	4C#	4AA	4cc	4c	2.r	2.r
.	.	16e	16e	.	.	.	.	.	.	.	.	.	.	.
.	.	16c#	16c#	.	.	.	.	.	.	.	.	.	.	.
.	.	16e	16e	.	.	.	.	.	.	.	.	.	.	.
.	.	16g	16g	.	.	.	.	.	4e	4c#	2r	2r	.	.
.	.	16e	16e	.	.	.	.	.	.	.	.	.	.	.
.	.	16g	16g	8c# 8e	8AA	8AA	.	.	.	.	.	.	.	.
.	.	16e	16e	.	.	.	.	.	.	.	.	.	.	.
.	.	16g	16g	8c# 8e	8AA	8AA	.	.	4r	4r	.	.	.	.
.	.	16e	16e	.	.	.	.	.	.	.	.	.	.	.
.	.	16g	16g	8c# 8e	8AA	8AA	.	.	.	.	.	.	.	.
.	.	16e	16e	.	.	.	.	.	.	.	.	.	.	.
=115	=115	=115	=115	=115	=115	=115	=115	=115	=115	=115	=115	=115	=115	=115
8ddd	2.r	16f	16f	4d	4D	4D	8ff	8dd	8d	8d	2.r	2.r	2.r	2.r
.	.	16a	16a	.	.	.	.	.	.	.	.	.	.	.
8r	.	16dd	16f	.	.	.	8r	8r	8r	8r	.	.	.	.
.	.	16ff	16a	.	.	.	.	.	.	.	.	.	.	.
8aa	.	4.aa	16e	4c#	4C#	4C#	8ee	8ee	8c#	8c#	.	.	.	.
.	.	.	16a	.	.	.	.	.	.	.	.	.	.	.
8r	.	.	16e	.	.	.	8r	8r	8r	8r	.	.	.	.
.	.	.	16a	.	.	.	.	.	.	.	.	.	.	.
8gg	.	.	16e	4c#	4A	4A	8aa	8cc#	8A	8A	.	.	.	.
.	.	.	16a	.	.	.	.	.	.	.	.	.	.	.
8r	.	8gg	16e	.	.	.	8r	8r	8r	8r	.	.	.	.
.	.	.	16a	.	.	.	.	.	.	.	.	.	.	.
=116	=116	=116	=116	=116	=116	=116	=116	=116	=116	=116	=116	=116	=116	=116
4ff	2.r	16ff	16f	4d	4D	4D	4ff	4dd	4d	4d	2.r	2.r	2.r	2.r
.	.	16aa	16a	.	.	.	.	.	.	.	.	.	.	.
.	.	16ff	16f	.	.	.	.	.	.	.	.	.	.	.
.	.	16dd	16a	.	.	.	.	.	.	.	.	.	.	.
2r	.	16cc#	16g	4e	4E	4E	2r	2r	2r	2r	.	.	.	.
.	.	16ee	16a	.	.	.	.	.	.	.	.	.	.	.
.	.	16cc#	16g	.	.	.	.	.	.	.	.	.	.	.
.	.	16a	16a	.	.	.	.	.	.	.	.	.	.	.
.	.	16g	16e	4c#	4C#	4C#	.	.	.	.	.	.	.	.
.	.	16a	16a	.	.	.	.	.	.	.	.	.	.	.
.	.	16g	16e	.	.	.	.	.	.	.	.	.	.	.
.	.	16e	16a	.	.	.	.	.	.	.	.	.	.	.
=117	=117	=117	=117	=117	=117	=117	=117	=117	=117	=117	=117	=117	=117	=117
4dd	4D	16f	16f	8d	8D	8D	4ff	4a	2.r	2.r	2.r	2.r	4dd	4dd
.	.	16a	16a	.	.	.	.	.	.	.	.	.	.	.
.	.	16dd	16f	8d	8D	8D	.	.	.	.	.	.	.	.
.	.	16ff	16a	.	.	.	.	.	.	.	.	.	.	.
4dd	2r	4.aa	16f	8d	8D	8D	4ff	4a	.	.	.	.	2r	2r
.	.	.	16a	.	.	.	.	.	.	.	.	.	.	.
.	.	.	16f	8d	8D	8D	.	.	.	.	.	.	.	.
.	.	.	16a	.	.	.	.	.	.	.	.	.	.	.
4r	.	.	16f	8d	8D	8D	4r	4r	.	.	.	.	.	.
.	.	.	16a	.	.	.	.	.	.	.	.	.	.	.
.	.	8gg	16f	8d	8D	8D	.	.	.	.	.	.	.	.
.	.	.	16a	.	.	.	.	.	.	.	.	.	.	.
=118	=118	=118	=118	=118	=118	=118	=118	=118	=118	=118	=118	=118	=118	=118
4aa	4D	16ff#	16f#	8d	8C	8C	4ff#	4dd	2.r	2.r	4dd	4g	4dd	4dd
.	.	16aa	16a	.	.	.	.	.	.	.	.	.	.	.
.	.	16ff#	16f#	8d	8C	8C	.	.	.	.	.	.	.	.
.	.	16dd	16a	.	.	.	.	.	.	.	.	.	.	.
4aa	4D	16cc	16f#	8d	8C	8C	4ff#	4dd	.	.	4dd	4g	4dd	4dd
.	.	16ee	16a	.	.	.	.	.	.	.	.	.	.	.
.	.	16cc	16f#	8d	8C	8C	.	.	.	.	.	.	.	.
.	.	16a	16a	.	.	.	.	.	.	.	.	.	.	.
4r	4D	16f#	16f#	8d	8C	8C	4r	4r	.	.	4r	4r	4dd	4dd
.	.	16a	16a	.	.	.	.	.	.	.	.	.	.	.
.	.	16f#	16f#	8d	8C	8C	.	.	.	.	.	.	.	.
.	.	16d	16a	.	.	.	.	.	.	.	.	.	.	.
=119	=119	=119	=119	=119	=119	=119	=119	=119	=119	=119	=119	=119	=119	=119
4bb	4GG	16g	16g	8d	8BB	8BB	4gg	4dd	2.r	2.r	4ee	4cc	2.dd	2.g
.	.	16b	16b	.	.	.	.	.	.	.	.	.	.	.
.	.	16dd	16g	8d	8BB	8BB	.	.	.	.	.	.	.	.
.	.	16gg	16b	.	.	.	.	.	.	.	.	.	.	.
4bb	2r	4.bb	16g	8d	8BB	8BB	4gg	4dd	.	.	4ee	4cc	.	.
.	.	.	16b	.	.	.	.	.	.	.	.	.	.	.
.	.	.	16g	8d	8BB	8BB	.	.	.	.	.	.	.	.
.	.	.	16b	.	.	.	.	.	.	.	.	.	.	.
4r	.	.	16g	8d	8BB	8BB	4r	4r	.	.	4r	4r	.	.
.	.	.	16b	.	.	.	.	.	.	.	.	.	.	.
.	.	8gg	16g	8d	8BB	8BB	.	.	.	.	.	.	.	.
.	.	.	16b	.	.	.	.	.	.	.	.	.	.	.
=120	=120	=120	=120	=120	=120	=120	=120	=120	=120	=120	=120	=120	=120	=120
4ccc	4D	16d	16d	8d	8F#	8F#	4aa	4dd	2.r	2.r	4dd	4g	2.dd	2.dd
.	.	16dd	16a	.	.	.	.	.	.	.	.	.	.	.
.	.	16ff#	16d	8d	8F#	8F#	.	.	.	.	.	.	.	.
.	.	16aa	16a	.	.	.	.	.	.	.	.	.	.	.
4ccc	2r	4.ccc	16d	8d	8F#	8F#	4aa	4dd	.	.	4dd	4g	.	.
.	.	.	16a	.	.	.	.	.	.	.	.	.	.	.
.	.	.	16d	8d	8F#	8F#	.	.	.	.	.	.	.	.
.	.	.	16a	.	.	.	.	.	.	.	.	.	.	.
4r	.	.	16d	8d	8F#	8F#	4r	4r	.	.	4r	4r	.	.
.	.	.	16a	.	.	.	.	.	.	.	.	.	.	.
.	.	8aa	16d	8d	8F#	8F#	.	.	.	.	.	.	.	.
.	.	.	16a	.	.	.	.	.	.	.	.	.	.	.
=121	=121	=121	=121	=121	=121	=121	=121	=121	=121	=121	=121	=121	=121	=121
4bb	4GG	16d	16d	8d	8G	8G	4bb	4dd	2.r	2.r	4ee	4cc	2.dd	2.g
.	.	16dd	16b	.	.	.	.	.	.	.	.	.	.	.
.	.	16gg	16d	8d	8G	8G	.	.	.	.	.	.	.	.
.	.	16bb	16b	.	.	.	.	.	.	.	.	.	.	.
4bb	2r	4.ddd	16d	8d	8G	8G	4bb	4dd	.	.	4ee	4cc	.	.
.	.	.	16b	.	.	.	.	.	.	.	.	.	.	.
.	.	.	16d	8d	8G	8G	.	.	.	.	.	.	.	.
.	.	.	16b	.	.	.	.	.	.	.	.	.	.	.
4r	.	.	16d	8d	8G	8G	4r	4r	.	.	4r	4r	.	.
.	.	.	16b	.	.	.	.	.	.	.	.	.	.	.
.	.	8bb	16d	8d	8G	8G	.	.	.	.	.	.	.	.
.	.	.	16b	.	.	.	.	.	.	.	.	.	.	.
=122	=122	=122	=122	=122	=122	=122	=122	=122	=122	=122	=122	=122	=122	=122
16ccc#	4GG	16ccc#	16g	8a	8E	8E	4cc#	4gg	2.r	2.r	4cc	4cc	4gg	4g
16ddd	.	16ddd	16g	.	.	.	.	.	.	.	.	.	.	.
16eee	.	16eee	16g	8a	8E	8E	.	.	.	.	.	.	.	.
16ddd	.	16ddd	16g	.	.	.	.	.	.	.	.	.	.	.
16ccc#	4GG	16ccc#	16g	8a	8E	8E	4cc#	4gg	.	.	4cc	4cc	4gg	4g
16ddd	.	16ddd	16g	.	.	.	.	.	.	.	.	.	.	.
16eee	.	16eee	16g	8a	8E	8E	.	.	.	.	.	.	.	.
16ddd	.	16ddd	16g	.	.	.	.	.	.	.	.	.	.	.
16ccc#	4GG	16ccc#	16g	8a	8E	8E	4r	4r	.	.	4cc	4cc	4gg	4g
16ddd	.	16ddd	16g	.	.	.	.	.	.	.	.	.	.	.
16eee	.	16eee	16g	8a	8E	8E	.	.	.	.	.	.	.	.
16ddd	.	16ddd	16g	.	.	.	.	.	.	.	.	.	.	.
=123	=123	=123	=123	=123	=123	=123	=123	=123	=123	=123	=123	=123	=123	=123
4ccc#	4GG	4ccc#	4g	4a	4E	4E	4.r	4.r	4.r	4.r	4cc	4cc	4gg	4g
8r	2r	2r	2r	2r	2r	2r	.	.	.	.	2r	2r	2r	2r
8ee	.	.	.	.	.	.	8gg	8cc#	8e	8e	.	.	.	.
8gg	.	.	.	.	.	.	8gg	8cc#	8e	8e	.	.	.	.
8ccc#	.	.	.	.	.	.	8gg	8cc#	8e	8e	.	.	.	.
=124	=124	=124	=124	=124	=124	=124	=124	=124	=124	=124	=124	=124	=124	=124
4eee	2.r	2.r	2.r	2.r	2.r	2.r	4gg	4cc#	4e	4e	2.r	2.r	2.r	2.r
2r	.	.	.	.	.	.	2r	2r	2r	2r	.	.	.	.
=125	=125	=125	=125	=125	=125	=125	=125	=125	=125	=125	=125	=125	=125	=125
2.r	2.r	[4cc	8f# 8A	8c	8D	8D	2.r	2.r	2.r	2.r	2.r	2.r	2.r	2.r
.	.	.	8f# 8A	8c	8D	8D	.	.	.	.	.	.	.	.
.	.	8cc]	8f# 8A	8c	8D	8D	.	.	.	.	.	.	.	.
.	.	8b	4.r	4.r	4.r	4.r	.	.	.	.	.	.	.	.
.	.	8a	.	.	.	.	.	.	.	.	.	.	.	.
.	.	8g	.	.	.	.	.	.	.	.	.	.	.	.
=126	=126	=126	=126	=126	=126	=126	=126	=126	=126	=126	=126	=126	=126	=126
4.ccc	2.r	[6..f#	2.r	2.r	2.r	2.r	2.r	2.r	8c	8F#	8dd	8g	2.r	2.r
.	.	.	.	.	.	.	.	.	8c	8F#	8dd	8g	.	.
.	.	.	.	.	.	.	.	.	8c	8F#	8dd	8g	.	.
.	.	48f#]	.	.	.	.	.	.	.	.	.	.	.	.
.	.	16a	.	.	.	.	.	.	.	.	.	.	.	.
8bb	.	16g	.	.	.	.	.	.	4.r	4.r	4.r	4.r	.	.
.	.	16b	.	.	.	.	.	.	.	.	.	.	.	.
8aa	.	16a	.	.	.	.	.	.	.	.	.	.	.	.
.	.	16cc	.	.	.	.	.	.	.	.	.	.	.	.
8gg	.	16b	.	.	.	.	.	.	.	.	.	.	.	.
.	.	16dd	.	.	.	.	.	.	.	.	.	.	.	.
=127	=127	=127	=127	=127	=127	=127	=127	=127	=127	=127	=127	=127	=127	=127
[4ff#	2.r	[4cc	8f# 8A	8c	8D	8D	2.r	2.r	2.r	2.r	2.r	2.r	2.r	2.r
.	.	.	8f# 8A	8c	8D	8D	.	.	.	.	.	.	.	.
16ff#]	.	8cc]	8f# 8A	8c	8D	8D	.	.	.	.	.	.	.	.
16aa	.	.	.	.	.	.	.	.	.	.	.	.	.	.
16gg	.	8b	4.r	4.r	4.r	4.r	.	.	.	.	.	.	.	.
16bb	.	.	.	.	.	.	.	.	.	.	.	.	.	.
16aa	.	8a	.	.	.	.	.	.	.	.	.	.	.	.
16ccc	.	.	.	.	.	.	.	.	.	.	.	.	.	.
16bb	.	8g	.	.	.	.	.	.	.	.	.	.	.	.
16ddd	.	.	.	.	.	.	.	.	.	.	.	.	.	.
=128	=128	=128	=128	=128	=128	=128	=128	=128	=128	=128	=128	=128	=128	=128
8ccc	2.r	8f#	2.r	2.r	2.r	2.r	2.r	2.r	8c	8F#	8dd	8g	2.r	2.r
8r	.	8r	.	.	.	.	.	.	8c	8F#	8dd	8g	.	.
8aa	.	8aa	.	.	.	.	.	.	8c	8F#	8dd	8g	.	.
4.r	.	4.r	.	.	.	.	.	.	4.r	4.r	4.r	4.r	.	.
=129	=129	=129	=129	=129	=129	=129	=129	=129	=129	=129	=129	=129	=129	=129
2.r	4GG	4G 4g	16B	4G	8GG	8GG	2dd	2.b	4GG	4GG	2.cc	2.e	2g	2g
.	.	.	16d	.	.	.	.	.	.	.	.	.	.	.
.	.	.	16B	.	8G	8G	.	.	.	.	.	.	.	.
.	.	.	16d	.	.	.	.	.	.	.	.	.	.	.
.	2r	4bb	16B	4G	8G	8G	.	.	4B	4G	.	.	.	.
.	.	.	16d	.	.	.	.	.	.	.	.	.	.	.
.	.	.	16B	.	8G	8G	.	.	.	.	.	.	.	.
.	.	.	16d	.	.	.	.	.	.	.	.	.	.	.
.	.	8r	16B	4G	8G	8G	4gg	.	4B	4G	.	.	4r	4r
.	.	.	16d	.	.	.	.	.	.	.	.	.	.	.
.	.	8gg	16B	.	8G	8G	.	.	.	.	.	.	.	.
.	.	.	16d	.	.	.	.	.	.	.	.	.	.	.
=130	=130	=130	=130	=130	=130	=130	=130	=130	=130	=130	=130	=130	=130	=130
4d	4D	16ff#	4c	2.c	8G	8G	2ff#	2.cc	2A	2F#	2.dd	2.g	4cc	4cc
.	.	16aa	.	.	.	.	.	.	.	.	.	.	.	.
.	.	16ff#	.	.	8G	8G	.	.	.	.	.	.	.	.
.	.	16dd	.	.	.	.	.	.	.	.	.	.	.	.
4.ccc	4D	16cc	2A 2f#	.	8G	8G	.	.	.	.	.	.	4cc	4cc
.	.	16ee	.	.	.	.	.	.	.	.	.	.	.	.
.	.	16cc	.	.	8G	8G	.	.	.	.	.	.	.	.
.	.	16a	.	.	.	.	.	.	.	.	.	.	.	.
.	4D	16f#	.	.	8G	8G	4aa	.	4c	4A	.	.	4dd	4dd
.	.	16a	.	.	.	.	.	.	.	.	.	.	.	.
8aa	.	16f#	.	.	8G	8G	.	.	.	.	.	.	.	.
.	.	16d	.	.	.	.	.	.	.	.	.	.	.	.
=131	=131	=131	=131	=131	=131	=131	=131	=131	=131	=131	=131	=131	=131	=131
16bb	4GG	4g	16g	4B	8GG	8GG	2dd	2.b	4B	4G	2.ee	2.cc	4g	4g
16ddd	.	.	16d	.	.	.	.	.	.	.	.	.	.	.
16bb	.	.	16B	.	8G	8G	.	.	.	.	.	.	.	.
16gg	.	.	16d	.	.	.	.	.	.	.	.	.	.	.
16dd	2r	4bb	16B	4d	8G	8G	.	.	4B	4G	.	.	2r	2r
16gg	.	.	16d	.	.	.	.	.	.	.	.	.	.	.
16dd	.	.	16B	.	8G	8G	.	.	.	.	.	.	.	.
16b	.	.	16d	.	.	.	.	.	.	.	.	.	.	.
16g	.	8r	16B	4g	8G	8G	4gg	.	4B	4G	.	.	.	.
16dd	.	.	16d	.	.	.	.	.	.	.	.	.	.	.
16b	.	8gg	16B	.	8G	8G	.	.	.	.	.	.	.	.
16g	.	.	16d	.	.	.	.	.	.	.	.	.	.	.
=132	=132	=132	=132	=132	=132	=132	=132	=132	=132	=132	=132	=132	=132	=132
4d	4D	16ff#	4c	2.c	8G	8G	2ff#	2.cc	2A	2F#	2.dd	2.g	4cc	4cc
.	.	16aa	.	.	.	.	.	.	.	.	.	.	.	.
.	.	16ff#	.	.	8G	8G	.	.	.	.	.	.	.	.
.	.	16dd	.	.	.	.	.	.	.	.	.	.	.	.
4.ccc	4D	16cc	2f# 2A	.	8G	8G	.	.	.	.	.	.	4cc	4cc
.	.	16ee	.	.	.	.	.	.	.	.	.	.	.	.
.	.	16cc	.	.	8G	8G	.	.	.	.	.	.	.	.
.	.	16a	.	.	.	.	.	.	.	.	.	.	.	.
.	4D	16f#	.	.	8G	8G	4aa	.	4c	4A	.	.	4dd	4dd
.	.	16a	.	.	.	.	.	.	.	.	.	.	.	.
8aa	.	16f#	.	.	8G	8G	.	.	.	.	.	.	.	.
.	.	16d	.	.	.	.	.	.	.	.	.	.	.	.
=133	=133	=133	=133	=133	=133	=133	=133	=133	=133	=133	=133	=133	=133	=133
4bb	4GG	8g	8G 8g	8B	8G	8G	8gg	8b	8B	8G	4cc	4e	4g	4g
.	.	8r	8r	8r	8r	8r	8r	8r	8r	8r	.	.	.	.
2r	2r	8d 8a	8a 8d	8A	8F#	8F#	8aa	8a	8F#	8F#	2r	2r	2r	2r
.	.	8r	8r	8r	8r	8r	8r	8r	8r	8r	.	.	.	.
.	.	8b 8d	8b 8d	8G	8G	8G	8bb	8g	8G	8G	.	.	.	.
.	.	8r	8r	8r	8r	8r	8r	8r	8r	8r	.	.	.	.
=134	=134	=134	=134	=134	=134	=134	=134	=134	=134	=134	=134	=134	=134	=134
2.r	2.r	8e 8cc	8cc 8e	8G	8E	8E	8ccc	8g	8E	8E	2.r	2.r	2.r	2.r
.	.	8r	8r	8r	8r	8r	8r	8r	8r	8r	.	.	.	.
.	.	8ee 8cc	8ee 8cc	8G	8C	8C	8ee	8g	8C	8C	.	.	.	.
.	.	4.r	4.r	4.r	4.r	4.r	4.r	4.r	4.r	4.r	.	.	.	.
=135	=135	=135	=135	=135	=135	=135	=135	=135	=135	=135	=135	=135	=135	=135
2.aa	4D	16d	2.f# 2.c	2.D	2.D	2.D	2.ff#	2.cc	2.A	2.D	2.dd	2.g	2.dd	2.dd
.	.	16e	.	.	.	.	.	.	.	.	.	.	.	.
.	.	16f#	.	.	.	.	.	.	.	.	.	.	.	.
.	.	16g	.	.	.	.	.	.	.	.	.	.	.	.
.	4D	16a	.	.	.	.	.	.	.	.	.	.	.	.
.	.	16b	.	.	.	.	.	.	.	.	.	.	.	.
.	.	16cc	.	.	.	.	.	.	.	.	.	.	.	.
.	.	16dd	.	.	.	.	.	.	.	.	.	.	.	.
.	4D	16ee	.	.	.	.	.	.	.	.	.	.	.	.
.	.	16ff#	.	.	.	.	.	.	.	.	.	.	.	.
.	.	16gg	.	.	.	.	.	.	.	.	.	.	.	.
.	.	16aa	.	.	.	.	.	.	.	.	.	.	.	.
=136	=136	=136	=136	=136	=136	=136	=136	=136	=136	=136	=136	=136	=136	=136
4bb	4GG	8bb	4B 4g	4G	4G	4G	4gg	4b	4G	4G	4ee	4cc	4dd	4g
.	.	8gg	.	.	.	.	.	.	.	.	.	.	.	.
8r	8r	8dd	8r	2r	2r	2r	8r	8r	8r	8r	8r	8r	8r	8r
8ddd	8GG	8b	8b	.	.	.	8bb	8gg	8G	8G	8ee	8cc	8dd	8g
8ddd	8GG	8g	8g	.	.	.	8bb	8gg	8G	8G	8ee	8cc	8dd	8g
8ddd	8GG	8d	8d	.	.	.	8bb	8gg	8G	8G	8ee	8cc	8dd	8g
=137	=137	=137	=137	=137	=137	=137	=137	=137	=137	=137	=137	=137	=137	=137
[2.ddd	4GG	16B	16B	4g	4G	4G	4bb	4gg	4G	4G	4ee	4cc	4dd	4g
.	.	16d	16d	.	.	.	.	.	.	.	.	.	.	.
.	.	16B	16B	.	.	.	.	.	.	.	.	.	.	.
.	.	16d	16d	.	.	.	.	.	.	.	.	.	.	.
.	4r	16c	16c	2f#	4A	4A	4ccc	2ff#	4A	4A	4r	4r	2r	2r
.	.	16d	16d	.	.	.	.	.	.	.	.	.	.	.
.	.	16c	16c	.	.	.	.	.	.	.	.	.	.	.
.	.	16d	16d	.	.	.	.	.	.	.	.	.	.	.
.	4D	16A	16A	.	4D	4D	4aa	.	4D	4D	4dd	4g	.	.
.	.	16d	16d	.	.	.	.	.	.	.	.	.	.	.
.	.	16A	16A	.	.	.	.	.	.	.	.	.	.	.
.	.	16d	16d	.	.	.	.	.	.	.	.	.	.	.
=138	=138	=138	=138	=138	=138	=138	=138	=138	=138	=138	=138	=138	=138	=138
2.ddd]	4GG	16B	16B	4g	8G	8G	8bb	4gg	8G	8G	4ee	4cc	4dd	4g
.	.	16d	16d	.	.	.	.	.	.	.	.	.	.	.
.	.	16B	16B	.	16F#	16F#	16aa	.	16F#	16F#	.	.	.	.
.	.	16d	16d	.	16G	16G	16bb	.	16G	16G	.	.	.	.
.	4r	16c	16c	2f#	4A	4A	4ccc	2ff#	4A	4A	4r	4r	2r	2r
.	.	16d	16d	.	.	.	.	.	.	.	.	.	.	.
.	.	16c	16c	.	.	.	.	.	.	.	.	.	.	.
.	.	16d	16d	.	.	.	.	.	.	.	.	.	.	.
.	4D	16A	16A	.	4D	4D	4aa	.	4D	4D	4dd	4g	.	.
.	.	16d	16d	.	.	.	.	.	.	.	.	.	.	.
.	.	16A	16A	.	.	.	.	.	.	.	.	.	.	.
.	.	16d	16d	.	.	.	.	.	.	.	.	.	.	.
=139	=139	=139	=139	=139	=139	=139	=139	=139	=139	=139	=139	=139	=139	=139
4ddd	4GG	16B	16B	4g	8G	8G	8bb	4gg	8G	8G	4ee	4cc	4dd	4g
.	.	16d	16d	.	.	.	.	.	.	.	.	.	.	.
.	.	16B	16B	.	16F#	16F#	16aa	.	16F#	16F#	.	.	.	.
.	.	16d	16d	.	16G	16G	16bb	.	16G	16G	.	.	.	.
8ddd	4r	16c	16c	2f#	8A	8A	8ccc	8ff#	8A	8A	4r	4r	2r	2r
.	.	16d	16d	.	.	.	.	.	.	.	.	.	.	.
8ddd	.	16c	16c	.	8A	8A	8ccc	8ff#	8A	8A	.	.	.	.
.	.	16d	16d	.	.	.	.	.	.	.	.	.	.	.
8ddd	4D	16A	16A	.	8D	8D	8aa	8ff#	8D	8D	4dd	4g	.	.
.	.	16d	16d	.	.	.	.	.	.	.	.	.	.	.
8ddd	.	16A	16A	.	8D	8D	8aa	8ff#	8D	8D	.	.	.	.
.	.	16d	16d	.	.	.	.	.	.	.	.	.	.	.
=140	=140	=140	=140	=140	=140	=140	=140	=140	=140	=140	=140	=140	=140	=140
2ddd	4GG	16B	16B	2g	2G	2G	2bb	2.gg	2G	2G	4ee	4cc	4dd	4g
.	.	16g	16g	.	.	.	.	.	.	.	.	.	.	.
.	.	16b	16b	.	.	.	.	.	.	.	.	.	.	.
.	.	16a	16a	.	.	.	.	.	.	.	.	.	.	.
.	2r	16g	16g	.	.	.	.	.	.	.	4r	4r	2r	2r
.	.	16f#	16f#	.	.	.	.	.	.	.	.	.	.	.
.	.	16e	16e	.	.	.	.	.	.	.	.	.	.	.
.	.	16d	16d	.	.	.	.	.	.	.	.	.	.	.
4ccc#	.	16c#	16c#	4e	4A	4A	4ccc#	.	4A	4A	4dd	4dd	.	.
.	.	16A	16A	.	.	.	.	.	.	.	.	.	.	.
.	.	16B	16B	.	.	.	.	.	.	.	.	.	.	.
.	.	16c#	16c#	.	.	.	.	.	.	.	.	.	.	.
=141	=141	=141	=141	=141	=141	=141	=141	=141	=141	=141	=141	=141	=141	=141
4ddd	4D	16d	4d	4d	4D	4D	4ddd	4ff#	4D	4D	4dd	4g	4dd	4dd
.	.	16e	.	.	.	.	.	.	.	.	.	.	.	.
.	.	16f#	.	.	.	.	.	.	.	.	.	.	.	.
.	.	16g	.	.	.	.	.	.	.	.	.	.	.	.
4r	2r	16a	4r	4r	4r	4r	4r	4r	4r	4r	4r	4r	2r	2r
.	.	16b	.	.	.	.	.	.	.	.	.	.	.	.
.	.	16cc#	.	.	.	.	.	.	.	.	.	.	.	.
.	.	16dd	.	.	.	.	.	.	.	.	.	.	.	.
4gg	.	16a	4cc# 4A 4e	4a	4A	4A	4ccc#	4ee	4A	4A	4dd	4dd	.	.
.	.	16g	.	.	.	.	.	.	.	.	.	.	.	.
.	.	16f#	.	.	.	.	.	.	.	.	.	.	.	.
.	.	16e	.	.	.	.	.	.	.	.	.	.	.	.
=142	=142	=142	=142	=142	=142	=142	=142	=142	=142	=142	=142	=142	=142	=142
4ff#	4D	16d	4A 4dd 4f#	4a	4d	4d	4ddd	4ff#	4d	4d	4dd	4g	4dd	4dd
.	.	16e	.	.	.	.	.	.	.	.	.	.	.	.
.	.	16f#	.	.	.	.	.	.	.	.	.	.	.	.
.	.	16g	.	.	.	.	.	.	.	.	.	.	.	.
4r	2r	16a	4r	4r	4F#	4F#	4r	4r	4r	4r	4r	4r	2r	2r
.	.	16b	.	.	.	.	.	.	.	.	.	.	.	.
.	.	16cc#	.	.	.	.	.	.	.	.	.	.	.	.
.	.	16dd	.	.	.	.	.	.	.	.	.	.	.	.
4gg	.	16a	4cc# 4A 4e	4a	4A	4A	4ccc#	4ee	4A	4A	4dd	4dd	.	.
.	.	16g	.	.	.	.	.	.	.	.	.	.	.	.
.	.	16f#	.	.	.	.	.	.	.	.	.	.	.	.
.	.	16e	.	.	.	.	.	.	.	.	.	.	.	.
=143	=143	=143	=143	=143	=143	=143	=143	=143	=143	=143	=143	=143	=143	=143
4ff#	4D	4d	4f# 4dd 4A	8d	8D	4D	4ddd	4ff#	4D	4D	4dd	4g	4dd	4dd
.	.	.	.	8d	8d	.	.	.	.	.	.	.	.	.
2r	2r	8r	8r	4d	4d	2r	2r	2r	2r	2r	2r	2r	2r	2r
.	.	8e	8c#	.	.	.	.	.	.	.	.	.	.	.
.	.	8f#	8d	4r	4r	.	.	.	.	.	.	.	.	.
.	.	8g	8e	.	.	.	.	.	.	.	.	.	.	.
=144	=144	=144	=144	=144	=144	=144	=144	=144	=144	=144	=144	=144	=144	=144
2.r	2.r	4a	4f#	8d	8d	2.r	2.r	2.r	2.r	2.r	2.r	2.r	2.r	2.r
.	.	.	.	8d	8d	.	.	.	.	.	.	.	.	.
.	.	8r	8r	4d	4d	.	.	.	.	.	.	.	.	.
.	.	8g#	8g#	.	.	.	.	.	.	.	.	.	.	.
.	.	8a	8a	4r	4r	.	.	.	.	.	.	.	.	.
.	.	8b	8g	.	.	.	.	.	.	.	.	.	.	.
=145	=145	=145	=145	=145	=145	=145	=145	=145	=145	=145	=145	=145	=145	=145
2.r	2.r	[4cc	8A 8f#	8e-	8E-	8E-	2.r	2.r	2.r	2.r	2.r	2.r	2.r	2.r
.	.	.	8f# 8A	8e-	8E-	8E-	.	.	.	.	.	.	.	.
.	.	8cc]	8f# 8A	8e-	8E-	8E-	.	.	.	.	.	.	.	.
.	.	8b-	4.r	4.r	4.r	4.r	.	.	.	.	.	.	.	.
.	.	8a	.	.	.	.	.	.	.	.	.	.	.	.
.	.	8g	.	.	.	.	.	.	.	.	.	.	.	.
=146	=146	=146	=146	=146	=146	=146	=146	=146	=146	=146	=146	=146	=146	=146
2.r	2.r	[6..f#	8A 8f#	8cc	8D	8D	2.r	2.r	[4c	[4c	2.r	2.r	2.r	2.r
.	.	.	8A 8f#	8cc	8D	8D	.	.	.	.	.	.	.	.
.	.	.	8f# 8A	8cc	8D	8D	.	.	8c]	8c]	.	.	.	.
.	.	48f#]	.	.	.	.	.	.	.	.	.	.	.	.
.	.	16a	.	.	.	.	.	.	.	.	.	.	.	.
.	.	16g	4.r	4.r	4.r	4.r	.	.	8B-	8B-	.	.	.	.
.	.	16b-	.	.	.	.	.	.	.	.	.	.	.	.
.	.	16a	.	.	.	.	.	.	8A	8A	.	.	.	.
.	.	16cc	.	.	.	.	.	.	.	.	.	.	.	.
.	.	16b-	.	.	.	.	.	.	8G	8G	.	.	.	.
.	.	16dd	.	.	.	.	.	.	.	.	.	.	.	.
=147	=147	=147	=147	=147	=147	=147	=147	=147	=147	=147	=147	=147	=147	=147
2.r	2.r	[4cc	8f# 8A	8e-	8E-	8E-	2.r	2.r	[4F#	[4F#	2.r	2.r	2.r	2.r
.	.	.	8A 8f#	8e-	8E-	8E-	.	.	.	.	.	.	.	.
.	.	8cc]	8f# 8A	8e-	8E-	8E-	.	.	8F#]	8F#]	.	.	.	.
.	.	8b-	4.r	4.r	4.r	4.r	.	.	8G	8G	.	.	.	.
.	.	8a	.	.	.	.	.	.	8A	8A	.	.	.	.
.	.	8g	.	.	.	.	.	.	8B-	8B-	.	.	.	.
=148	=148	=148	=148	=148	=148	=148	=148	=148	=148	=148	=148	=148	=148	=148
4aa	2.r	8f#	[2.A 2.f#	2.d	2.D	2.D	4r	4r	4c	4c	2.r	2.r	2.r	2.r
.	.	8r	.	.	.	.	.	.	.	.	.	.	.	.
8ff#	.	8aa	.	.	.	.	8aa	8ff#	2r	2r	.	.	.	.
4.r	.	4.r	.	.	.	.	8r	8r	.	.	.	.	.	.
.	.	.	.	.	.	.	8aa	8ff#	.	.	.	.	.	.
.	.	.	.	.	.	.	8r	8r	.	.	.	.	.	.
=149	=149	=149	=149	=149	=149	=149	=149	=149	=149	=149	=149	=149	=149	=149
4aa	2.r	8f#	2.A 2.f#_	2.c#	2.C#	2.C#	4r	4r	2.r	2.r	2.r	2.r	2.r	2.r
.	.	8r	.	.	.	.	.	.	.	.	.	.	.	.
8ff#	.	8aa	.	.	.	.	8aa	8ff#	.	.	.	.	.	.
4.r	.	4.r	.	.	.	.	8r	8r	.	.	.	.	.	.
.	.	.	.	.	.	.	8aa	8ff#	.	.	.	.	.	.
.	.	.	.	.	.	.	8r	8r	.	.	.	.	.	.
=150	=150	=150	=150	=150	=150	=150	=150	=150	=150	=150	=150	=150	=150	=150
4aa	2.r	8f#	2.A 2.f#_	2.c	2.C	2.C	4r	4r	2.r	2.r	2.r	2.r	2.r	2.r
.	.	8r	.	.	.	.	.	.	.	.	.	.	.	.
8ff#	.	8aa	.	.	.	.	8aa	8ff#	.	.	.	.	.	.
4.r	.	4.r	.	.	.	.	8r	8r	.	.	.	.	.	.
.	.	.	.	.	.	.	8aa	8ff#	.	.	.	.	.	.
.	.	.	.	.	.	.	8r	8r	.	.	.	.	.	.
=151	=151	=151	=151	=151	=151	=151	=151	=151	=151	=151	=151	=151	=151	=151
2.d#	2.r	8B	2.A 2.f#]	2.B	2.BB	2.BB	4r	4r	2.d#	2.d#	2.r	2.r	2.r	2.r
.	.	8r	.	.	.	.	.	.	.	.	.	.	.	.
.	.	8aa	.	.	.	.	8aa	8ff#	.	.	.	.	.	.
.	.	4.r	.	.	.	.	8r	8r	.	.	.	.	.	.
.	.	.	.	.	.	.	8aa	8ff#	.	.	.	.	.	.
.	.	.	.	.	.	.	8r	8r	.	.	.	.	.	.
=152	=152	=152	=152	=152	=152	=152	=152	=152	=152	=152	=152	=152	=152	=152
4e	2.r	8B	2G 2e	2B	2B	2B	[2.gg	2ee	2e	2e	[2.cc	[2.c	2.r	2.r
.	.	8r	.	.	.	.	.	.	.	.	.	.	.	.
4gg	.	8gg	.	.	.	.	.	.	.	.	.	.	.	.
.	.	8r	.	.	.	.	.	.	.	.	.	.	.	.
4bb-	.	8B-	4d	4B-	4B-	4B-	.	4dd	4d	4d	.	.	.	.
.	.	8r	.	.	.	.	.	.	.	.	.	.	.	.
=153	=153	=153	=153	=153	=153	=153	=153	=153	=153	=153	=153	=153	=153	=153
[2.aa	2.r	8A	2.c#	4A	2.A	2.A	4gg]	2.cc#	2.g	2.g	4cc]	4c]	2.r	2.r
.	.	8r	.	.	.	.	.	.	.	.	.	.	.	.
.	.	8gg	.	4e	.	.	4ee	.	.	.	2r	2r	.	.
.	.	4.r	.	.	.	.	.	.	.	.	.	.	.	.
.	.	.	.	4e	.	.	4cc#	.	.	.	.	.	.	.
=154	=154	=154	=154	=154	=154	=154	=154	=154	=154	=154	=154	=154	=154	=154
2.aa]	2.r	8f#	2c	2f#	2.D	2.D	4aa	2.cc	2f#	2f#	2.r	2.r	2.r	2.r
.	.	8r	.	.	.	.	.	.	.	.	.	.	.	.
.	.	8aa	.	.	.	.	4ff#	.	.	.	.	.	.	.
.	.	8r	.	.	.	.	.	.	.	.	.	.	.	.
.	.	8cc	4f#	4a	.	.	4cc	.	4D	4D	.	.	.	.
.	.	8r	.	.	.	.	.	.	.	.	.	.	.	.
=155	=155	=155	=155	=155	=155	=155	=155	=155	=155	=155	=155	=155	=155	=155
4bb	4GG	16gg	16g	16g	4BB	4BB	4b	4b	4BB	4BB	4r	4r	4g	4g
.	.	16gg	16g	16g	.	.	.	.	.	.	.	.	.	.
.	.	16gg	16g	16g	.	.	.	.	.	.	.	.	.	.
.	.	16gg	16g	16g	.	.	.	.	.	.	.	.	.	.
2r	2r	16gg	16b	16g	4G	4G	4g	4g	4G	4G	4cc	4c	4g	4g
.	.	16gg	16b	16g	.	.	.	.	.	.	.	.	.	.
.	.	16gg	16b	16g	.	.	.	.	.	.	.	.	.	.
.	.	16gg	16b	16g	.	.	.	.	.	.	.	.	.	.
.	.	16gg	16g	16g	8.r	8.r	4gg	4gg	8.r	8.r	4cc	4c	4r	4r
.	.	16gg	16g	16g	.	.	.	.	.	.	.	.	.	.
.	.	16gg	16g	16g	.	.	.	.	.	.	.	.	.	.
.	.	16gg	16g	16g	16BB	16BB	.	.	16BB	16BB	.	.	.	.
=156	=156	=156	=156	=156	=156	=156	=156	=156	=156	=156	=156	=156	=156	=156
2.r	4GG	16gg	16a	16g	4C	4C	4r	4r	4C	4C	4r	4r	4g	4g
.	.	16gg	16a	16g	.	.	.	.	.	.	.	.	.	.
.	.	16gg	16a	16g	.	.	.	.	.	.	.	.	.	.
.	.	16gg	16a	16g	.	.	.	.	.	.	.	.	.	.
.	2r	16gg	16cc	16g	4A	4A	4g	4g	4A	4A	4cc	4c	4g	4g
.	.	16gg	16cc	16g	.	.	.	.	.	.	.	.	.	.
.	.	16gg	16cc	16g	.	.	.	.	.	.	.	.	.	.
.	.	16gg	16cc	16g	.	.	.	.	.	.	.	.	.	.
.	.	16gg	16a	16g	8.r	8.r	4gg	4gg	8.r	8.r	4cc	4c	4r	4r
.	.	16gg	16a	16g	.	.	.	.	.	.	.	.	.	.
.	.	16gg	16a	16g	.	.	.	.	.	.	.	.	.	.
.	.	16gg	16a	16g	16C	16C	.	.	16C	16C	.	.	.	.
=157	=157	=157	=157	=157	=157	=157	=157	=157	=157	=157	=157	=157	=157	=157
2.r	4GG	16gg	16b	16g	4D	4D	4r	4r	4D	4D	4r	4r	4g	4g
.	.	16gg	16b	16g	.	.	.	.	.	.	.	.	.	.
.	.	16gg	16b	16g	.	.	.	.	.	.	.	.	.	.
.	.	16gg	16b	16g	.	.	.	.	.	.	.	.	.	.
.	2r	16gg	16dd	16g	4B	4B	4g	4g	4B	4B	4cc	4c	4g	4g
.	.	16gg	16dd	16g	.	.	.	.	.	.	.	.	.	.
.	.	16gg	16dd	16g	.	.	.	.	.	.	.	.	.	.
.	.	16gg	16dd	16g	.	.	.	.	.	.	.	.	.	.
.	.	16gg	16b	16g	8.r	8.r	4gg	4gg	8.r	8.r	4cc	4c	4r	4r
.	.	16gg	16b	16g	.	.	.	.	.	.	.	.	.	.
.	.	16gg	16b	16g	.	.	.	.	.	.	.	.	.	.
.	.	16gg	16b	16g	16D	16D	.	.	16D	16D	.	.	.	.
=158	=158	=158	=158	=158	=158	=158	=158	=158	=158	=158	=158	=158	=158	=158
2.r	4GG	16gg	16cc	16g	4E	4E	4r	4r	4E	4E	4r	4r	4g	4g
.	.	16gg	16cc	16g	.	.	.	.	.	.	.	.	.	.
.	.	16gg	16cc	16g	.	.	.	.	.	.	.	.	.	.
.	.	16gg	16cc	16g	.	.	.	.	.	.	.	.	.	.
.	2r	16gg	16ee	16g	4c	4c	4g	4g	4c	4c	4cc	4c	4g	4g
.	.	16gg	16ee	16g	.	.	.	.	.	.	.	.	.	.
.	.	16gg	16ee	16g	.	.	.	.	.	.	.	.	.	.
.	.	16gg	16ee	16g	.	.	.	.	.	.	.	.	.	.
.	.	16gg	16dd	16g	4d	4d	4gg	4gg	4d	4d	4cc	4c	4r	4r
.	.	16gg	16dd	16g	.	.	.	.	.	.	.	.	.	.
.	.	16gg	16dd	16g	.	.	.	.	.	.	.	.	.	.
.	.	16gg	16dd	16g	.	.	.	.	.	.	.	.	.	.
=159	=159	=159	=159	=159	=159	=159	=159	=159	=159	=159	=159	=159	=159	=159
2.r	4GG	8gg	8cc#	8a	8e	8e	4cc#	4cc#	4e	4e	4cc	4c	4g	4g
.	.	8r	8r	8r	8r	8r	.	.	.	.	.	.	.	.
.	2r	8gg	8cc#	8a	8e	8e	2r	2r	2r	2r	2r	2r	2r	2r
.	.	8r	4.r	4.r	4.r	4.r	.	.	.	.	.	.	.	.
.	.	8gg	.	.	.	.	.	.	.	.	.	.	.	.
.	.	16ff#	.	.	.	.	.	.	.	.	.	.	.	.
.	.	16gg	.	.	.	.	.	.	.	.	.	.	.	.
=160	=160	=160	=160	=160	=160	=160	=160	=160	=160	=160	=160	=160	=160	=160
8ccc	2.r	8ff#	8aa	8a	8d	8d	2.r	2.r	2.r	2.r	2.r	2.r	2.r	2.r
8r	.	8r	8r	8r	8r	8r	.	.	.	.	.	.	.	.
8ccc	.	8ff#	8aa	8a	8d	8d	.	.	.	.	.	.	.	.
8r	.	4.r	4.r	4.r	4.r	4.r	.	.	.	.	.	.	.	.
8ccc	.	.	.	.	.	.	.	.	.	.	.	.	.	.
16bb	.	.	.	.	.	.	.	.	.	.	.	.	.	.
16ccc	.	.	.	.	.	.	.	.	.	.	.	.	.	.
=161	=161	=161	=161	=161	=161	=161	=161	=161	=161	=161	=161	=161	=161	=161
8bb	2.r	8ff#	8b	8d#	8d#	2.r	2.r	2.r	2.r	2.r	2.r	2.r	2.r	2.r
2r	.	8r	8r	8r	8r	.	.	.	.	.	.	.	.	.
.	.	8ff#	8b	8d#	8d#	.	.	.	.	.	.	.	.	.
.	.	8r	4.r	4.r	4.r	.	.	.	.	.	.	.	.	.
.	.	8ff#	.	.	.	.	.	.	.	.	.	.	.	.
8r	.	16ee	.	.	.	.	.	.	.	.	.	.	.	.
.	.	16ff#	.	.	.	.	.	.	.	.	.	.	.	.
=162	=162	=162	=162	=162	=162	=162	=162	=162	=162	=162	=162	=162	=162	=162
8ddd	2.r	8gg#	8b	8e	8e	2.r	2.r	2.r	2.r	2.r	2.r	2.r	2.r	2.r
8r	.	8r	8r	8r	8r	.	.	.	.	.	.	.	.	.
8ddd	.	8gg#	8b	8e	8e	.	.	.	.	.	.	.	.	.
8r	.	4.r	4.r	4.r	4.r	.	.	.	.	.	.	.	.	.
8ddd	.	.	.	.	.	.	.	.	.	.	.	.	.	.
16ccc#	.	.	.	.	.	.	.	.	.	.	.	.	.	.
16ddd	.	.	.	.	.	.	.	.	.	.	.	.	.	.
=163	=163	=163	=163	=163	=163	=163	=163	=163	=163	=163	=163	=163	=163	=163
8ccc#	2.r	8gg#	8cc#	8e#	8e#	2.r	2.r	2.r	2.r	2.r	2.r	2.r	2.r	2.r
2r	.	8r	8r	8r	8r	.	.	.	.	.	.	.	.	.
.	.	8gg#	8cc#	8e#	8e#	.	.	.	.	.	.	.	.	.
.	.	8r	4.r	4.r	4.r	.	.	.	.	.	.	.	.	.
.	.	8gg#	.	.	.	.	.	.	.	.	.	.	.	.
8r	.	16ff#	.	.	.	.	.	.	.	.	.	.	.	.
.	.	16gg#	.	.	.	.	.	.	.	.	.	.	.	.
=164	=164	=164	=164	=164	=164	=164	=164	=164	=164	=164	=164	=164	=164	=164
2.r	2.r	8aa	8cc#	8f#	8f#	2.r	8aa	2.r	2.r	2.r	2.r	2.r	2.r	2.r
.	.	8r	8r	8r	8r	.	8r	.	.	.	.	.	.	.
.	.	8aa	8cc#	8f#	8f#	.	8aa	.	.	.	.	.	.	.
.	.	4.r	4.r	4.r	4.r	.	8r	.	.	.	.	.	.	.
.	.	.	.	.	.	.	8aa	.	.	.	.	.	.	.
.	.	.	.	.	.	.	16gg#	.	.	.	.	.	.	.
.	.	.	.	.	.	.	16aa	.	.	.	.	.	.	.
=165	=165	=165	=165	=165	=165	=165	=165	=165	=165	=165	=165	=165	=165	=165
4gg	2.r	8cc#	8a	8e	8e	2.r	8a	2.r	2.AA	2.AA	2.r	2.r	2.r	2.r
.	.	8r	8r	8r	8r	.	2r	.	.	.	.	.	.	.
8gg	.	8cc#	8a	8e	8e	.	.	.	.	.	.	.	.	.
8r	.	4.r	4.r	4.r	4.r	.	.	.	.	.	.	.	.	.
8gg	.	.	.	.	.	.	.	.	.	.	.	.	.	.
16ff#	.	.	.	.	.	.	8r	.	.	.	.	.	.	.
16gg	.	.	.	.	.	.	.	.	.	.	.	.	.	.
=166	=166	=166	=166	=166	=166	=166	=166	=166	=166	=166	=166	=166	=166	=166
8ff#	2.r	[4cc	2.r	[4a	4d	4d	8dd	2.r	4D	4D	[2.g	[2.G	2.r	2.r
8gg	.	.	.	.	.	.	8ee	.	.	.	.	.	.	.
8aa	.	8cc]	.	8a]	2r	2r	8ff#	.	2r	2r	.	.	.	.
8bb	.	8b	.	8g	.	.	8gg	.	.	.	.	.	.	.
8ccc	.	8a	.	8f#	.	.	8aa	.	.	.	.	.	.	.
8ddd	.	8g	.	8e	.	.	8bb	.	.	.	.	.	.	.
=167	=167	=167	=167	=167	=167	=167	=167	=167	=167	=167	=167	=167	=167	=167
8eee	2.r	[6..f#	[4cc	4d	4d	4d	8ccc	[4cc	2.r	2.r	2.g_	2.G_	2.r	2.r
8r	.	.	.	.	.	.	8r	.	.	.	.	.	.	.
8ccc	.	.	8cc]	2r	2r	2r	8aa	8cc]	.	.	.	.	.	.
.	.	48f#]	.	.	.	.	.	.	.	.	.	.	.	.
.	.	16a	.	.	.	.	.	.	.	.	.	.	.	.
4.r	.	16g	8b	.	.	.	4.r	8b	.	.	.	.	.	.
.	.	16b	.	.	.	.	.	.	.	.	.	.	.	.
.	.	16a	8a	.	.	.	.	8a	.	.	.	.	.	.
.	.	16cc	.	.	.	.	.	.	.	.	.	.	.	.
.	.	16b	8g	.	.	.	.	8g	.	.	.	.	.	.
.	.	16dd	.	.	.	.	.	.	.	.	.	.	.	.
=168	=168	=168	=168	=168	=168	=168	=168	=168	=168	=168	=168	=168	=168	=168
8ff#	2.r	[4cc	8f#	[4a	[4a	4D	8dd	4f#	2.r	2.r	2.g_	2.G_	2.r	2.r
8gg	.	.	2r	.	.	.	8ee	.	.	.	.	.	.	.
8aa	.	8cc]	.	8a]	8a]	2r	8ff#	2r	.	.	.	.	.	.
8bb	.	8b	.	8g	8g	.	8gg	.	.	.	.	.	.	.
8ccc	.	8a	.	8f#	8f#	.	8aa	.	.	.	.	.	.	.
8ddd	.	8g	8r	8e	8e	.	8bb	.	.	.	.	.	.	.
=169	=169	=169	=169	=169	=169	=169	=169	=169	=169	=169	=169	=169	=169	=169
8eee	2.r	8f#	2.r	4d	4d	4d	8ccc	2.r	2.r	2.r	2g]	2G]	2.r	2.r
8r	.	8r	.	.	.	.	8r	.	.	.	.	.	.	.
8ccc	.	8aa	.	2r	2r	2r	8aa	.	.	.	.	.	.	.
4.r	.	4.r	.	.	.	.	4.r	.	.	.	.	.	.	.
.	.	.	.	.	.	.	.	.	.	.	4r	4r	.	.
=170	=170	=170	=170	=170	=170	=170	=170	=170	=170	=170	=170	=170	=170	=170
2.r	2.r	2.r	2.r	2.r	2.r	2.r	4ddd	4bb	4d	4B	2.r	2.r	2.r	2.r
.	.	.	.	.	.	.	8bb	8gg	8g	8e	.	.	.	.
.	.	.	.	.	.	.	4.r	4.r	4.r	4.r	.	.	.	.
=171	=171	=171	=171	=171	=171	=171	=171	=171	=171	=171	=171	=171	=171	=171
2.r	2.r	2.r	2.r	2.r	2.r	2.r	4ccc	4aa	4c	4A	2.r	2.r	2.r	2.r
.	.	.	.	.	.	.	8aa	8ff#	8f#	8d	.	.	.	.
.	.	.	.	.	.	.	4.r	4.r	4.r	4.r	.	.	.	.
=172	=172	=172	=172	=172	=172	=172	=172	=172	=172	=172	=172	=172	=172	=172
2.r	2.r	8bb	8dd	8G	8G	8G	2.r	2.r	2.r	2.r	2.r	2.r	2.r	2.r
.	.	8r	8r	8r	8r	8r	.	.	.	.	.	.	.	.
.	.	8gg	8ee	8c	8c	8c	.	.	.	.	.	.	.	.
.	.	8r	8r	8r	8r	8r	.	.	.	.	.	.	.	.
.	.	8ccc	8ee	8A	8A	8A	.	.	.	.	.	.	.	.
.	.	8r	8r	8r	8r	8r	.	.	.	.	.	.	.	.
=173	=173	=173	=173	=173	=173	=173	=173	=173	=173	=173	=173	=173	=173	=173
2.r	2.r	8aa	8ff#	8d	8d	8d	2.r	2.r	2.r	2.r	2.r	2.r	2.r	2.r
.	.	8r	8r	8r	8r	8r	.	.	.	.	.	.	.	.
.	.	8ddd	8ff#	8B	8B	8B	.	.	.	.	.	.	.	.
.	.	8r	8r	8r	8r	8r	.	.	.	.	.	.	.	.
.	.	8bb	8gg	8e	8e	8e	.	.	.	.	.	.	.	.
.	.	8r	8r	8r	8r	8r	.	.	.	.	.	.	.	.
=174	=174	=174	=174	=174	=174	=174	=174	=174	=174	=174	=174	=174	=174	=174
2.r	2.r	8ccc#	8ee 8gg	8A	8A	8A	2.r	2.r	2.r	2.r	2.r	2.r	2.r	2.r
.	.	4ccc#	4ee 4gg	8c#	8A	8A	.	.	.	.	.	.	.	.
.	.	.	.	8e	8A	8A	.	.	.	.	.	.	.	.
.	.	4ccc#	4ee 4gg	8a	8A	8A	.	.	.	.	.	.	.	.
.	.	.	.	8cc#	8A	8A	.	.	.	.	.	.	.	.
.	.	8ccc#	8gg 8ee	8a	8A	8A	.	.	.	.	.	.	.	.
=175	=175	=175	=175	=175	=175	=175	=175	=175	=175	=175	=175	=175	=175	=175
[2.ddd	4D	8ddd	4dd 4ff#	4dd	4D	4D	2.r	2.r	4.F#	4.D	4g	4G	4dd	4dd
.	.	4ddd	.	.	.	.	.	.	.	.	.	.	.	.
.	4D	.	2r	2r	2r	2r	.	.	.	.	4g	4G	4dd	4dd
.	.	4ddd	.	.	.	.	.	.	8G	8E	.	.	.	.
.	4D	.	.	.	.	.	.	.	8A	8F#	4g	4G	4dd	4dd
.	.	[8ddd	.	.	.	.	.	.	8B	8G	.	.	.	.
=176	=176	=176	=176	=176	=176	=176	=176	=176	=176	=176	=176	=176	=176	=176
2.ddd_	4D	8ddd]	4.dd	4.f#	4.c	4.c	4.ff#	4.dd	4.c	4.A	[2.g	[2.G	4cc	4cc
.	.	4ddd	.	.	.	.	.	.	.	.	.	.	.	.
.	4D	.	.	.	.	.	.	.	.	.	.	.	4cc	4cc
.	.	4ddd	8ee	8g	8B	8B	8gg	8ee	8B	8G	.	.	.	.
.	4r	.	8ff#	8a	8A	8A	8aa	8ff#	8A	8F#	.	.	4r	4r
.	.	[8ddd	8gg	8b	8G	8G	8bb	8gg	8G	8E	.	.	.	.
=177	=177	=177	=177	=177	=177	=177	=177	=177	=177	=177	=177	=177	=177	=177
2.ddd_	4D	8ddd]	4.aa	4.cc	4.F#	4.F#	4.ccc	4.aa	4.F#	4.D	2.g_	2.G_	4cc	4cc
.	.	4ddd	.	.	.	.	.	.	.	.	.	.	.	.
.	4D	.	.	.	.	.	.	.	.	.	.	.	4cc	4cc
.	.	4ddd	8gg	8b	8G	8G	8bb	8gg	8G	8E	.	.	.	.
.	4r	.	8ff#	8a	8A	8A	8aa	8ff#	8A	8F#	.	.	4r	4r
.	.	[8ddd	8ee	8g	8B	8B	8gg	8ee	8B	8G	.	.	.	.
=178	=178	=178	=178	=178	=178	=178	=178	=178	=178	=178	=178	=178	=178	=178
2.ddd_	4D	8ddd]	4.dd	4.f#	4.c	4.c	4.ff#	4.dd	4c	4A	2.g_	2.G_	4cc	4cc
.	.	4ddd	.	.	.	.	.	.	.	.	.	.	.	.
.	4D	.	.	.	.	.	.	.	2r	2r	.	.	4cc	4cc
.	.	4ddd	8ee	8g	8B	8B	8gg	8ee	.	.	.	.	.	.
.	4r	.	8ff#	8a	8A	8A	8aa	8ff#	.	.	.	.	4r	4r
.	.	[8ddd	8gg	8b	8G	8G	8bb	8gg	.	.	.	.	.	.
=179	=179	=179	=179	=179	=179	=179	=179	=179	=179	=179	=179	=179	=179	=179
2ddd_	4D	8ddd]	8aa	8cc	4F#	4F#	4ccc	4aa	8c	8A	2.g]	2.G]	4cc	4cc
.	.	4ddd	8gg	8b	.	.	.	.	8B	8G	.	.	.	.
.	4D	.	8ff#	8a	2r	2r	2r	2r	8A	8F#	.	.	4cc	4cc
.	.	4ddd	8ee	8g	.	.	.	.	8G	8E	.	.	.	.
8ddd]	4r	.	8dd	8f#	.	.	.	.	8F#	8D	.	.	4r	4r
8ccc	.	8ccc	8cc	8a	.	.	.	.	8A	8F#	.	.	.	.
=180	=180	=180	=180	=180	=180	=180	=180	=180	=180	=180	=180	=180	=180	=180
4bb	4GG	16bb	16b	16d	4G	4G	2.r	2.r	4B	4G	4cc	4c	4dd	4g
.	.	16ddd	16dd	16d	.	.	.	.	.	.	.	.	.	.
.	.	16bb	16b	16d	.	.	.	.	.	.	.	.	.	.
.	.	16gg	16g	16d	.	.	.	.	.	.	.	.	.	.
2r	4r	8ff#	8f#	16d	4A	4A	.	.	2r	2r	2r	2r	4cc	4cc
.	.	.	.	16d	.	.	.	.	.	.	.	.	.	.
.	.	8aa	8a	16d	.	.	.	.	.	.	.	.	.	.
.	.	.	.	16d	.	.	.	.	.	.	.	.	.	.
.	4D	8dd	8d	16d	4F#	4F#	.	.	.	.	.	.	4cc	4cc
.	.	.	.	16d	.	.	.	.	.	.	.	.	.	.
.	.	8cc	8c	16d	.	.	.	.	.	.	.	.	.	.
.	.	.	.	16d	.	.	.	.	.	.	.	.	.	.
=181	=181	=181	=181	=181	=181	=181	=181	=181	=181	=181	=181	=181	=181	=181
2.r	4GG	16b	16B	16d	4G	4G	2.r	2.r	2.r	2.r	2.r	2.r	4g	4g
.	.	16dd	16d	16d	.	.	.	.	.	.	.	.	.	.
.	.	16gg	16g	16d	.	.	.	.	.	.	.	.	.	.
.	.	16bb	16b	16d	.	.	.	.	.	.	.	.	.	.
.	2r	4.ddd	4.dd	16d	4F#	4F#	.	.	.	.	.	.	2r	2r
.	.	.	.	16d	.	.	.	.	.	.	.	.	.	.
.	.	.	.	16d	.	.	.	.	.	.	.	.	.	.
.	.	.	.	16d	.	.	.	.	.	.	.	.	.	.
.	.	.	.	16d	4d	4d	.	.	.	.	.	.	.	.
.	.	.	.	16d	.	.	.	.	.	.	.	.	.	.
.	.	8ccc	8cc	16d	.	.	.	.	.	.	.	.	.	.
.	.	.	.	16d	.	.	.	.	.	.	.	.	.	.
=182	=182	=182	=182	=182	=182	=182	=182	=182	=182	=182	=182	=182	=182	=182
2.r	4GG	16bb	16b	16d	4G	4G	2.r	2.r	2.r	2.r	4cc	4e	4dd	4g
.	.	16ddd	16dd	16d	.	.	.	.	.	.	.	.	.	.
.	.	16bb	16b	16d	.	.	.	.	.	.	.	.	.	.
.	.	16gg	16g	16d	.	.	.	.	.	.	.	.	.	.
.	4r	8ff#	8f#	16d	4A	4A	.	.	.	.	4dd	4g	4cc	4cc
.	.	.	.	16d	.	.	.	.	.	.	.	.	.	.
.	.	8aa	8a	16d	.	.	.	.	.	.	.	.	.	.
.	.	.	.	16d	.	.	.	.	.	.	.	.	.	.
.	4D	8dd	8d	16d	4F#	4F#	.	.	.	.	4dd	4g	4cc	4cc
.	.	.	.	16d	.	.	.	.	.	.	.	.	.	.
.	.	8cc	8c	16d	.	.	.	.	.	.	.	.	.	.
.	.	.	.	16d	.	.	.	.	.	.	.	.	.	.
=183	=183	=183	=183	=183	=183	=183	=183	=183	=183	=183	=183	=183	=183	=183
2r	4GG	16b	16B	4d	4G	4G	[2.ddd	2.r	4G	4G	4ee	4cc	4g	4g
.	.	16dd	16d	.	.	.	.	.	.	.	.	.	.	.
.	.	16ee	16e	.	.	.	.	.	.	.	.	.	.	.
.	.	16ff#	16f#	.	.	.	.	.	.	.	.	.	.	.
.	2r	16gg	16g	4b	4B	4B	.	.	4B	4B	2r	2r	2r	2r
.	.	16aa	16a	.	.	.	.	.	.	.	.	.	.	.
.	.	16bb	16b	.	.	.	.	.	.	.	.	.	.	.
.	.	16ccc	16cc	.	.	.	.	.	.	.	.	.	.	.
4dd	.	8ddd	8dd	[4g	8B	8B	.	.	8B	8B	.	.	.	.
.	.	8dd	8dd	.	16A	16A	.	.	16A	16A	.	.	.	.
.	.	.	.	.	16B	16B	.	.	16B	16B	.	.	.	.
=184	=184	=184	=184	=184	=184	=184	=184	=184	=184	=184	=184	=184	=184	=184
8ee	2.r	8ee	4dd	4g]	4c	4c	4ddd]	2.ee	4c	4c	2.r	2.r	2.ee	2.cc
16ff#	.	16ff#	.	.	.	.	.	.	.	.	.	.	.	.
16gg	.	16gg	.	.	.	.	.	.	.	.	.	.	.	.
16aa	.	16aa	4cc	4cc	4A	4A	4ccc	.	4A	4A	.	.	.	.
16bb	.	16bb	.	.	.	.	.	.	.	.	.	.	.	.
16ccc	.	16ccc	.	.	.	.	.	.	.	.	.	.	.	.
16ddd]	.	16ddd	.	.	.	.	.	.	.	.	.	.	.	.
8eee	.	8eee	4cc	4b	4G	4G	4ccc	.	4G	4G	.	.	.	.
8eee	.	8eee	.	.	.	.	.	.	.	.	.	.	.	.
=185	=185	=185	=185	=185	=185	=185	=185	=185	=185	=185	=185	=185	=185	=185
16dd	2.r	16dd	4.cc	2a	2F#	2F#	2ccc	2.dd	2F#	2F#	2.r	2.r	2.dd	2.dd
16ee	.	16ee	.	.	.	.	.	.	.	.	.	.	.	.
16ff#	.	16ff#	.	.	.	.	.	.	.	.	.	.	.	.
16gg	.	16gg	.	.	.	.	.	.	.	.	.	.	.	.
16aa	.	16aa	.	.	.	.	.	.	.	.	.	.	.	.
16bb	.	16bb	.	.	.	.	.	.	.	.	.	.	.	.
16ccc	.	16ccc	8a	.	.	.	.	.	.	.	.	.	.	.
16ddd	.	16ddd	.	.	.	.	.	.	.	.	.	.	.	.
8dd	.	8dd	8b	4g	4G	4G	4bb	.	4G	4G	.	.	.	.
8ddd	.	8ddd	8b	.	.	.	.	.	.	.	.	.	.	.
=186	=186	=186	=186	=186	=186	=186	=186	=186	=186	=186	=186	=186	=186	=186
16cc	2.r	16cc	4.b	2g	2E	2E	2bb	2.cc	2E	2E	2.r	2.r	2cc	2cc
16dd	.	16dd	.	.	.	.	.	.	.	.	.	.	.	.
16ee	.	16ee	.	.	.	.	.	.	.	.	.	.	.	.
16ff#	.	16ff#	.	.	.	.	.	.	.	.	.	.	.	.
16gg	.	16gg	.	.	.	.	.	.	.	.	.	.	.	.
16aa	.	16aa	.	.	.	.	.	.	.	.	.	.	.	.
16bb	.	16bb	8g	.	.	.	.	.	.	.	.	.	.	.
16ccc	.	16ccc	.	.	.	.	.	.	.	.	.	.	.	.
8cc	.	8cc	8a	4d	4F#	4F#	4aa	.	4F#	4F#	.	.	4dd	4dd
8ccc	.	8ccc	8a	.	.	.	.	.	.	.	.	.	.	.
=187	=187	=187	=187	=187	=187	=187	=187	=187	=187	=187	=187	=187	=187	=187
16bb	4GG	16bb	16b	4G	4G	4G	4gg	4b	4G	4G	2.r	2.r	4dd	4g
16ccc	.	16ccc	16cc	.	.	.	.	.	.	.	.	.	.	.
16ddd	.	16ddd	16dd	.	.	.	.	.	.	.	.	.	.	.
16ccc	.	16ccc	16cc	.	.	.	.	.	.	.	.	.	.	.
16bb	2r	16bb	8b	4c	4A	4A	2r	4cc	4A	4A	.	.	2r	2r
16aa	.	16aa	.	.	.	.	.	.	.	.	.	.	.	.
16gg	.	16gg	16gg	.	.	.	.	.	.	.	.	.	.	.
16ff#	.	16ff#	16ff#	.	.	.	.	.	.	.	.	.	.	.
16ee	.	16ee	16ee	4d	4B	4B	.	4dd	4B	4B	.	.	.	.
16dd	.	16dd	16dd	.	.	.	.	.	.	.	.	.	.	.
16cc	.	16cc	16cc	.	.	.	.	.	.	.	.	.	.	.
16b	.	16b	16b	.	.	.	.	.	.	.	.	.	.	.
=188	=188	=188	=188	=188	=188	=188	=188	=188	=188	=188	=188	=188	=188	=188
16a	2.r	16a	16a	2e	2c	2c	2.r	2ee	2c	2c	2.r	2.r	4ee	4cc
16b	.	16b	16b	.	.	.	.	.	.	.	.	.	.	.
16cc	.	16cc	16cc	.	.	.	.	.	.	.	.	.	.	.
16dd	.	16dd	16dd	.	.	.	.	.	.	.	.	.	.	.
16ee	.	16ee	16ee	.	.	.	.	.	.	.	.	.	2r	2r
16dd	.	16dd	16dd	.	.	.	.	.	.	.	.	.	.	.
16cc	.	16cc	16cc	.	.	.	.	.	.	.	.	.	.	.
16b	.	16b	16b	.	.	.	.	.	.	.	.	.	.	.
16a	.	16a	16a	4c#	4c#	4c#	.	4r	4c#	4c#	.	.	.	.
16g	.	16g	16g	.	.	.	.	.	.	.	.	.	.	.
16f#	.	16f#	16f#	.	.	.	.	.	.	.	.	.	.	.
16e	.	16e	16e	.	.	.	.	.	.	.	.	.	.	.
=189	=189	=189	=189	=189	=189	=189	=189	=189	=189	=189	=189	=189	=189	=189
4d	4D	4d	4d	4d	4d	4d	2.r	2.r	4d	4d	4ee	4cc	4dd	4dd
4bb	4D	4bb	4bb 4b	4D	4D	4D	.	.	4D	4D	4ee	4cc	4dd	4dd
4r	4r	4r	4r	4r	4r	4r	.	.	4r	4r	4r	4r	4r	4r
=190	=190	=190	=190	=190	=190	=190	=190	=190	=190	=190	=190	=190	=190	=190
4d	4D	4d	4d	4d	4d	4d	2.r	2.r	4d	4d	4dd	4g	4dd	4dd
4ff#	4D	4ff# 4a	4cc 4d	4D	2r	4D	.	.	4D	4D	4dd	4g	4dd	4dd
4r	4r	4r	4r	4r	.	4r	.	.	4r	4r	4r	4r	4r	4r
=191	=191	=191	=191	=191	=191	=191	=191	=191	=191	=191	=191	=191	=191	=191
2.r	2.r	8b	8g	4G	4G	4G	8gg	2.r	2.r	2.r	2.r	2.r	2.r	2.r
.	.	8d	8d	.	.	.	8r	.	.	.	.	.	.	.
.	.	8b	8g	2r	2r	2r	8gg	.	.	.	.	.	.	.
.	.	8d	8d	.	.	.	8r	.	.	.	.	.	.	.
.	.	8b	8g	.	.	.	8gg	.	.	.	.	.	.	.
.	.	8d	8d	.	.	.	16ff#	.	.	.	.	.	.	.
.	.	.	.	.	.	.	16gg	.	.	.	.	.	.	.
=192	=192	=192	=192	=192	=192	=192	=192	=192	=192	=192	=192	=192	=192	=192
2.r	2.r	8cc	8c	4c	4C	4C	8aa	2.r	2.r	2.r	2.r	2.r	2.r	2.r
.	.	8e	8e	.	.	.	8r	.	.	.	.	.	.	.
.	.	8cc	8a	2r	2r	2r	8aa	.	.	.	.	.	.	.
.	.	8e	8e	.	.	.	4.r	.	.	.	.	.	.	.
.	.	8cc	8a	.	.	.	.	.	.	.	.	.	.	.
.	.	8e	8e	.	.	.	.	.	.	.	.	.	.	.
=193	=193	=193	=193	=193	=193	=193	=193	=193	=193	=193	=193	=193	=193	=193
2.r	2.r	8a	8f#	4d	4D	4D	8dd	2.r	2.r	2.r	2.r	2.r	2.r	2.r
.	.	8f#	8d	.	.	.	8r	.	.	.	.	.	.	.
.	.	8a	8f#	2r	2r	2r	8dd	.	.	.	.	.	.	.
.	.	8f#	8d	.	.	.	8r	.	.	.	.	.	.	.
.	.	8a	8f#	.	.	.	8dd	.	.	.	.	.	.	.
.	.	8f#	8d	.	.	.	16cc#	.	.	.	.	.	.	.
.	.	.	.	.	.	.	16dd	.	.	.	.	.	.	.
=194	=194	=194	=194	=194	=194	=194	=194	=194	=194	=194	=194	=194	=194	=194
2.r	2.r	8g	8g	4G	4GG	4GG	8g	2.r	2.r	2.r	2.r	2.r	2.r	2.r
.	.	8B	8B	.	.	.	8r	.	.	.	.	.	.	.
.	.	8d	8d	2r	2r	2r	8g	.	.	.	.	.	.	.
.	.	8g	8g	.	.	.	4.r	.	.	.	.	.	.	.
.	.	8b	8b	.	.	.	.	.	.	.	.	.	.	.
.	.	8dd	8dd	.	.	.	.	.	.	.	.	.	.	.
=195	=195	=195	=195	=195	=195	=195	=195	=195	=195	=195	=195	=195	=195	=195
8gg	2.r	8gg	8b	8g	8BB	4G	2.r	2.r	2.r	2.r	2.r	2.r	2.r	2.r
8r	.	8r	8d	8d	8D	.	.	.	.	.	.	.	.	.
8gg	.	8gg	8b	8g	8G	2r	.	.	.	.	.	.	.	.
8r	.	8r	8d	8d	8B	.	.	.	.	.	.	.	.	.
8gg	.	8gg	8b	8g	8G	.	.	.	.	.	.	.	.	.
16ff#	.	16ff#	8d	8d	8D	.	.	.	.	.	.	.	.	.
16gg	.	16gg	.	.	.	.	.	.	.	.	.	.	.	.
=196	=196	=196	=196	=196	=196	=196	=196	=196	=196	=196	=196	=196	=196	=196
8aa	2.r	8aa	8cc	8c	8C	4C	2.r	2.r	2.r	2.r	2.r	2.r	2.r	2.r
8r	.	8r	8e	8e	8E	.	.	.	.	.	.	.	.	.
8aa	.	8aa	8cc	8a	8A	2r	.	.	.	.	.	.	.	.
4.r	.	4.r	8e	8e	8c	.	.	.	.	.	.	.	.	.
.	.	.	8cc	8a	8A	.	.	.	.	.	.	.	.	.
.	.	.	8e	8e	8E	.	.	.	.	.	.	.	.	.
=197	=197	=197	=197	=197	=197	=197	=197	=197	=197	=197	=197	=197	=197	=197
8ddd	2.r	8dd	8a	8f#	8D	4D	2.r	2.r	2.r	2.r	2.r	2.r	2.r	2.r
8r	.	8r	8f#	8d	8F#	.	.	.	.	.	.	.	.	.
8ddd	.	8dd	8a	8f#	8A	2r	.	.	.	.	.	.	.	.
8r	.	8r	8f#	8d	8c	.	.	.	.	.	.	.	.	.
8ddd	.	8dd	8a	8f#	8A	.	.	.	.	.	.	.	.	.
16ccc#	.	16cc#	8f#	8d	8F#	.	.	.	.	.	.	.	.	.
16ddd	.	16dd	.	.	.	.	.	.	.	.	.	.	.	.
=198	=198	=198	=198	=198	=198	=198	=198	=198	=198	=198	=198	=198	=198	=198
4gg	2r	8g	4g	4g	4G	4G	2.r	2.r	4r	4r	2r	2r	2r	2r
.	.	8r	.	.	.	.	.	.	.	.	.	.	.	.
2r	.	16f#	4r	4r	4r	4r	.	.	16D	16D	.	.	.	.
.	.	16g	.	.	.	.	.	.	16E	16E	.	.	.	.
.	.	16a	.	.	.	.	.	.	16F#	16F#	.	.	.	.
.	.	16b	.	.	.	.	.	.	16G	16G	.	.	.	.
.	4D	16cc	4ff# 4d 4a	4d	4D	4D	.	.	16A	16A	4dd	4g	4dd	4dd
.	.	16dd	.	.	.	.	.	.	16B	16B	.	.	.	.
.	.	16ee	.	.	.	.	.	.	16c	16c	.	.	.	.
.	.	16ff#	.	.	.	.	.	.	16d	16d	.	.	.	.
=199	=199	=199	=199	=199	=199	=199	=199	=199	=199	=199	=199	=199	=199	=199
4r	4GG	8gg	4gg 4b 4d	4d	4GG	4GG	4r	4r	4G	4G	4ee	4cc	4gg	4g
.	.	8r	.	.	.	.	.	.	.	.	.	.	.	.
16ccc	4r	16f#	4r	4r	16D	4r	16ccc	16ccc	16D	16D	4r	4r	4r	4r
16bb	.	16g	.	.	16E	.	16bb	16bb	16E	16E	.	.	.	.
16aa	.	16a	.	.	16F#	.	16aa	16aa	16F#	16F#	.	.	.	.
16gg	.	16b	.	.	16G	.	16gg	16gg	16G	16G	.	.	.	.
16ff#	4D	16cc	4d 4ff# 4a	4d	16A	4D	16ff#	16ff#	16A	16A	4dd	4g	4dd	4dd
16ee	.	16dd	.	.	16B	.	16ee	16ee	16B	16B	.	.	.	.
16dd	.	16ee	.	.	16c	.	16dd	16dd	16c	16c	.	.	.	.
16cc	.	16ff#	.	.	16d	.	16cc	16cc	16d	16d	.	.	.	.
=200	=200	=200	=200	=200	=200	=200	=200	=200	=200	=200	=200	=200	=200	=200
4b	4GG	4gg	4gg 4b 4d	4d	4G	4G	4b	4b	4G	4G	4ee	4cc	4gg	4g
2r	2r	8r	8r	8r	8r	8r	2r	2r	2r	2r	2r	2r	2r	2r
.	.	8aa#	8dd	8f#	8f#	8f#	.	.	.	.	.	.	.	.
.	.	8bb	8dd	8g	8g	8g	.	.	.	.	.	.	.	.
.	.	8aa#	8dd	8f#	8f#	8f#	.	.	.	.	.	.	.	.
=201	=201	=201	=201	=201	=201	=201	=201	=201	=201	=201	=201	=201	=201	=201
2.r	2.r	4bb	4dd	4g	4g	4g	2.r	2.r	2.r	2.r	2.r	2.r	2.r	2.r
.	.	8r	8r	8r	8r	8r	.	.	.	.	.	.	.	.
.	.	8ff#	8b	8d#	8d#	8d#	.	.	.	.	.	.	.	.
.	.	8gg	8b	8e	8e	8e	.	.	.	.	.	.	.	.
.	.	8ff#	8b	8d#	8d#	8d#	.	.	.	.	.	.	.	.
=202	=202	=202	=202	=202	=202	=202	=202	=202	=202	=202	=202	=202	=202	=202
2.r	2.r	4gg	4b	4e	4e	4e	2.r	2.r	2.r	2.r	2.r	2.r	2.r	2.r
.	.	8r	8r	8r	8r	8r	.	.	.	.	.	.	.	.
.	.	8dd#	8g	8B	8B	8B	.	.	.	.	.	.	.	.
.	.	8ee	8g	8c	8c	8c	.	.	.	.	.	.	.	.
.	.	8dd#	8g	8B	8B	8B	.	.	.	.	.	.	.	.
=203	=203	=203	=203	=203	=203	=203	=203	=203	=203	=203	=203	=203	=203	=203
2.r	2.r	4ee	4g	4c	4c	4c	2.r	2.r	2.r	2.r	2.r	2.r	2.r	2.r
.	.	8r	8r	8r	8r	8r	.	.	.	.	.	.	.	.
.	.	8dd	8g	8B-	8B-	8B-	.	.	.	.	.	.	.	.
.	.	8cc#	8g	8A	8A	8A	.	.	.	.	.	.	.	.
.	.	8dd	8g	8B-	8B-	8B-	.	.	.	.	.	.	.	.
=204	=204	=204	=204	=204	=204	=204	=204	=204	=204	=204	=204	=204	=204	=204
2.r	2.r	4cc#	4g	4A	4A	4A	2.r	2.r	2.r	2.r	2.r	2.r	2.r	2.r
.	.	2r	2r	2r	2r	2r	.	.	.	.	.	.	.	.
=205	=205	=205	=205	=205	=205	=205	=205	=205	=205	=205	=205	=205	=205	=205
2.r	2.r	[4cc	[4cc	4D	4D	4D	2.r	2.r	8F#	8D	[2.g	[2.G	2.r	2.r
.	.	.	.	.	.	.	.	.	8G	8E	.	.	.	.
.	.	8cc]	8cc]	2r	2r	2r	.	.	8A	8F#	.	.	.	.
.	.	8b	8b	.	.	.	.	.	8B	8G	.	.	.	.
.	.	8a	8a	.	.	.	.	.	8c	8A	.	.	.	.
.	.	8g	8g	.	.	.	.	.	8d	8B	.	.	.	.
=206	=206	=206	=206	=206	=206	=206	=206	=206	=206	=206	=206	=206	=206	=206
2.r	2.r	[6..f#	[4f#	4D	4D	4D	4.ccc	4.aa	8c	8A	2.g_	2.G_	2.r	2.r
.	.	.	.	.	.	.	.	.	8r	8r	.	.	.	.
.	.	.	16f#]	2r	2r	2r	.	.	8A	8D	.	.	.	.
.	.	48f#]	.	.	.	.	.	.	.	.	.	.	.	.
.	.	16a	16a	.	.	.	.	.	.	.	.	.	.	.
.	.	16g	16g	.	.	.	8bb	8gg	4.r	4.r	.	.	.	.
.	.	16b	16b	.	.	.	.	.	.	.	.	.	.	.
.	.	16a	16a	.	.	.	8aa	8ff#	.	.	.	.	.	.
.	.	16cc	16cc	.	.	.	.	.	.	.	.	.	.	.
.	.	16b	16b	.	.	.	8bb	8gg	.	.	.	.	.	.
.	.	16dd	16dd	.	.	.	.	.	.	.	.	.	.	.
=207	=207	=207	=207	=207	=207	=207	=207	=207	=207	=207	=207	=207	=207	=207
2.r	2.r	[4cc	[4cc	4D	4D	4D	4ccc	4aa	8F#	8D	2.g_	2.G_	2.r	2.r
.	.	.	.	.	.	.	.	.	8G	8E	.	.	.	.
.	.	8cc]	8cc]	2r	2r	2r	2r	2r	8A	8F#	.	.	.	.
.	.	8b	8b	.	.	.	.	.	8B	8G	.	.	.	.
.	.	8a	8a	.	.	.	.	.	8c	8A	.	.	.	.
.	.	8g	8g	.	.	.	.	.	8d	8B	.	.	.	.
=208	=208	=208	=208	=208	=208	=208	=208	=208	=208	=208	=208	=208	=208	=208
2.r	2.r	8f#	8f#	4D	4D	4D	2.r	2.r	8c	8A	4g]	4G]	2.r	2.r
.	.	8r	2r	.	.	.	.	.	8r	8r	.	.	.	.
.	.	8aa	.	2r	2r	2r	.	.	8A	8D	2r	2r	.	.
.	.	4.r	.	.	.	.	.	.	4.r	4.r	.	.	.	.
.	.	.	8r	.	.	.	.	.	.	.	.	.	.	.
=209	=209	=209	=209	=209	=209	=209	=209	=209	=209	=209	=209	=209	=209	=209
2.r	2.r	8b	4g	4E	4E	4E	2.r	2.r	2.r	2.r	2.r	2.r	2.r	2.r
.	.	8r	.	.	.	.	.	.	.	.	.	.	.	.
.	.	8gg	2r	2r	2r	2r	.	.	.	.	.	.	.	.
.	.	4.r	.	.	.	.	.	.	.	.	.	.	.	.
=210	=210	=210	=210	=210	=210	=210	=210	=210	=210	=210	=210	=210	=210	=210
2.r	2.r	8a	4g	4e	4c#	4c#	2.r	2.r	2.r	2.r	2.r	2.r	2.r	2.r
.	.	8r	.	.	.	.	.	.	.	.	.	.	.	.
.	.	8ee	2r	2r	2r	2r	.	.	.	.	.	.	.	.
.	.	4.r	.	.	.	.	.	.	.	.	.	.	.	.
=211	=211	=211	=211	=211	=211	=211	=211	=211	=211	=211	=211	=211	=211	=211
2.r	2.r	8A	4c	4F#	4D	4D	2.r	2.r	2.r	2.r	2.r	2.r	2.r	2.r
.	.	8r	.	.	.	.	.	.	.	.	.	.	.	.
.	.	8f#	2r	2r	2r	2r	.	.	.	.	.	.	.	.
.	.	4.r	.	.	.	.	.	.	.	.	.	.	.	.
=212	=212	=212	=212	=212	=212	=212	=212	=212	=212	=212	=212	=212	=212	=212
4.bb-	4GG	16B-	4e- 4G	4.G	4.E-	4.E-	4.gg	4.b-	4E-	4E-	2cc	2c	4.g	4.g
.	.	16e-	.	.	.	.	.	.	.	.	.	.	.	.
.	.	16g	.	.	.	.	.	.	.	.	.	.	.	.
.	.	16e-	.	.	.	.	.	.	.	.	.	.	.	.
.	2r	16B-	4gg 4b-	.	.	.	.	.	4e-	4e-	.	.	.	.
.	.	16g	.	.	.	.	.	.	.	.	.	.	.	.
8bb-	.	16B-	.	8g	8E-	8E-	8gg	8b-	.	.	.	.	8g	8g
.	.	16g	.	.	.	.	.	.	.	.	.	.	.	.
8bb-	.	16B-	4r	8b-	8E-	8E-	8gg	8b-	4r	4r	4r	4r	8g	8g
.	.	16g	.	.	.	.	.	.	.	.	.	.	.	.
8bb-	.	16B-	.	8g	8E-	8E-	8gg	8b-	.	.	.	.	8g	8g
.	.	16g	.	.	.	.	.	.	.	.	.	.	.	.
=213	=213	=213	=213	=213	=213	=213	=213	=213	=213	=213	=213	=213	=213	=213
4.aa-	4GG	16A-	4A- 4e-	4.e-	4.C	4.C	4.aa-	4.ee-	4CC	4CC	2.r	2.r	4.cc	4.cc
.	.	16e-	.	.	.	.	.	.	.	.	.	.	.	.
.	.	16a-	.	.	.	.	.	.	.	.	.	.	.	.
.	.	16e-	.	.	.	.	.	.	.	.	.	.	.	.
.	2r	16A-	4aa- 4cc	.	.	.	.	.	4c	4c	.	.	.	.
.	.	16a-	.	.	.	.	.	.	.	.	.	.	.	.
8aa-	.	16A-	.	8e-	8C	8C	8aa-	8ee-	.	.	.	.	8cc	8cc
.	.	16a-	.	.	.	.	.	.	.	.	.	.	.	.
8aa-	.	16A-	4r	8a-	8C	8C	8aa-	8ee-	4r	4r	.	.	8cc	8cc
.	.	16a-	.	.	.	.	.	.	.	.	.	.	.	.
8aa-	.	16A-	.	8e-	8C	8C	8aa-	8ee-	.	.	.	.	8cc	8cc
.	.	16a-	.	.	.	.	.	.	.	.	.	.	.	.
=214	=214	=214	=214	=214	=214	=214	=214	=214	=214	=214	=214	=214	=214	=214
4.fff	4D	16B-	4B- 4f	4.f	4.D	4.D	4.aa-	4.ff	4DD	4DD	2.r	2.r	4.dd	4.dd
.	.	16f	.	.	.	.	.	.	.	.	.	.	.	.
.	.	16a-	.	.	.	.	.	.	.	.	.	.	.	.
.	.	16f	.	.	.	.	.	.	.	.	.	.	.	.
.	2r	16B-	4aa- 4b-	.	.	.	.	.	4d	4d	.	.	.	.
.	.	16a-	.	.	.	.	.	.	.	.	.	.	.	.
8fff	.	16B-	.	8f	8D	8D	8aa-	8ff	.	.	.	.	8dd	8dd
.	.	16a-	.	.	.	.	.	.	.	.	.	.	.	.
8fff	.	16B-	4r	8a-	8D	8D	8aa-	8ff	4r	4r	.	.	8dd	8dd
.	.	16a-	.	.	.	.	.	.	.	.	.	.	.	.
8fff	.	16B-	.	8f	8D	8D	8aa-	8ff	.	.	.	.	8dd	8dd
.	.	16a-	.	.	.	.	.	.	.	.	.	.	.	.
=215	=215	=215	=215	=215	=215	=215	=215	=215	=215	=215	=215	=215	=215	=215
4.fff	4GG	16G	4G 4d	4.g	4.BB	4.BB	4.gg	4.dd	4BB	4BB	4.cc	4.c	4.dd	4.g
.	.	16f	.	.	.	.	.	.	.	.	.	.	.	.
.	.	16g	.	.	.	.	.	.	.	.	.	.	.	.
.	.	16f	.	.	.	.	.	.	.	.	.	.	.	.
.	2r	16G	4gg 4b	.	.	.	.	.	4B	4B	.	.	.	.
.	.	16f	.	.	.	.	.	.	.	.	.	.	.	.
8fff	.	16G	.	8d	8BB	8BB	8gg	8dd	.	.	8cc	8c	8dd	8g
.	.	16f	.	.	.	.	.	.	.	.	.	.	.	.
8fff	.	16G	4r	8g	8BB	8BB	8gg	8dd	4r	4r	8cc	8c	8dd	8g
.	.	16f	.	.	.	.	.	.	.	.	.	.	.	.
8fff	.	16G	.	8d	8BB	8BB	8gg	8dd	.	.	8cc	8c	8dd	8g
.	.	16f	.	.	.	.	.	.	.	.	.	.	.	.
=216	=216	=216	=216	=216	=216	=216	=216	=216	=216	=216	=216	=216	=216	=216
4.eee-	4GG	16G	4G 4e-	4.e-	4.C	4.C	4.gg	4.ee-	4CC	4CC	4.cc	4.c	4.cc	4.cc
.	.	16e-	.	.	.	.	.	.	.	.	.	.	.	.
.	.	16g	.	.	.	.	.	.	.	.	.	.	.	.
.	.	16e-	.	.	.	.	.	.	.	.	.	.	.	.
.	2r	16G	4ee- 4gg	.	.	.	.	.	4c	4c	.	.	.	.
.	.	16e-	.	.	.	.	.	.	.	.	.	.	.	.
8eee-	.	16G	.	8e-	8C	8C	8gg	8ee-	.	.	8cc	8c	8cc	8cc
.	.	16e-	.	.	.	.	.	.	.	.	.	.	.	.
8eee-	.	16G	4r	8g	8C	8C	8gg	8ee-	4r	4r	8cc	8c	8cc	8cc
.	.	16e-	.	.	.	.	.	.	.	.	.	.	.	.
8eee-	.	16G	.	8e-	8C	8C	8gg	8ee-	.	.	8cc	8c	8cc	8cc
.	.	16e-	.	.	.	.	.	.	.	.	.	.	.	.
=217	=217	=217	=217	=217	=217	=217	=217	=217	=217	=217	=217	=217	=217	=217
4.bb-	4GG	16G	4b- 4g	4.g	4.C#	4.C#	4.gg	4.ee	4C#	4C#	4.cc	4.c	4.gg	4.g
.	.	16B-	.	.	.	.	.	.	.	.	.	.	.	.
.	.	16g	.	.	.	.	.	.	.	.	.	.	.	.
.	.	16e	.	.	.	.	.	.	.	.	.	.	.	.
.	2r	16B-	4gg 4b-	.	.	.	.	.	4c#	4c#	.	.	.	.
.	.	16g	.	.	.	.	.	.	.	.	.	.	.	.
8bb-	.	16B-	.	8B-	8C#	8C#	8gg	8ee	.	.	8cc	8c	8gg	8g
.	.	16g	.	.	.	.	.	.	.	.	.	.	.	.
8bb-	.	16B-	4r	8g	8C#	8C#	8gg	8ee	4r	4r	8cc	8c	8gg	8g
.	.	16g	.	.	.	.	.	.	.	.	.	.	.	.
8bb-	.	16B-	.	8B-	8C#	8C#	8gg	8ee	.	.	8cc	8c	8gg	8g
.	.	16g	.	.	.	.	.	.	.	.	.	.	.	.
=218	=218	=218	=218	=218	=218	=218	=218	=218	=218	=218	=218	=218	=218	=218
[2.ddd	4D	8d	8B	4g	4D	4D	[2.bb	[2.gg	4D	4D	[2.cc	[2.e	4dd	4dd
.	.	8g	8d	.	.	.	.	.	.	.	.	.	.	.
.	2r	8b	8g	2r	2r	2r	.	.	2r	2r	.	.	2r	2r
.	.	8dd	8b	.	.	.	.	.	.	.	.	.	.	.
.	.	8gg	8dd	.	.	.	.	.	.	.	.	.	.	.
.	.	8bb	8gg	.	.	.	.	.	.	.	.	.	.	.
=219	=219	=219	=219	=219	=219	=219	=219	=219	=219	=219	=219	=219	=219	=219
4ddd]	4D	4ddd	4bb	2r	2r	2r	4bb]	4gg]	2.r	2.r	4cc]	4e]	4dd	4g
4r	4r	4r	4r	.	.	.	4r	4r	.	.	4r	4r	4r	4r
4ccc	4D	4d 4ff# 4a	4cc	4d	4D	4D	4ff#	4aa	.	.	4dd	4g	4dd	4dd
=220	=220	=220	=220	=220	=220	=220	=220	=220	=220	=220	=220	=220	=220	=220
4bb	8GG	[4gg	8g 8cc#	8e	8E	8E	8gg	8cc#	4.g	4.g	8dd	8dd	8gg	8g
.	8GG	.	8cc# 8g	8e	8E	8E	8gg	8cc#	.	.	8dd	8dd	8gg	8g
2r	4GG	8gg]	4cc# 4g	4e	4E	4E	4gg	4cc#	.	.	4dd	4dd	4gg	4g
.	.	8ff#	.	.	.	.	.	.	8f#	8f#	.	.	.	.
.	4r	8ee	4r	4r	4r	4r	4r	4r	8e	8e	4r	4r	4r	4r
.	.	8dd	.	.	.	.	.	.	8d	8d	.	.	.	.
=221	=221	=221	=221	=221	=221	=221	=221	=221	=221	=221	=221	=221	=221	=221
4.gg	8GG	[6..cc#	8cc# 8g	8g	8E	8E	8gg	8cc#	4.c#	4.c#	8dd	8dd	8gg	8g
.	8GG	.	8cc# 8g	8g	8E	8E	8gg	8cc#	.	.	8dd	8dd	8gg	8g
.	4GG	.	4g 4cc#	4g	4E	4E	4gg	4cc#	.	.	4dd	4dd	4gg	4g
.	.	48cc#]	.	.	.	.	.	.	.	.	.	.	.	.
.	.	16ee	.	.	.	.	.	.	.	.	.	.	.	.
8ff#	.	16dd	.	.	.	.	.	.	8d	8d	.	.	.	.
.	.	16ff#	.	.	.	.	.	.	.	.	.	.	.	.
8ee	4r	16ee	4r	4r	4r	4r	4r	4r	8e	8e	4r	4r	4r	4r
.	.	16gg	.	.	.	.	.	.	.	.	.	.	.	.
8dd	.	16ff#	.	.	.	.	.	.	8f#	8f#	.	.	.	.
.	.	16aa	.	.	.	.	.	.	.	.	.	.	.	.
=222	=222	=222	=222	=222	=222	=222	=222	=222	=222	=222	=222	=222	=222	=222
4.cc#	8GG	[4gg	8cc# 8g	8A	8E	8E	8gg	8cc#	4.g	4.g	8dd	8dd	8gg	8g
.	8GG	.	8cc# 8g	8A	8E	8E	8gg	8cc#	.	.	8dd	8dd	8gg	8g
.	4GG	8gg]	4cc# 4g	4A	4E	4E	4gg	4cc#	.	.	4dd	4dd	4gg	4g
8dd	.	8ff#	.	.	.	.	.	.	8f#	8f#	.	.	.	.
8ee	4r	8ee	4r	4r	4r	4r	4r	4r	8e	8e	4r	4r	4r	4r
8ff#	.	8dd	.	.	.	.	.	.	8d	8d	.	.	.	.
=223	=223	=223	=223	=223	=223	=223	=223	=223	=223	=223	=223	=223	=223	=223
4gg	8GG	4cc#	8cc# 8g	8A	8E	8E	8gg	8cc#	4c#	4c#	8dd	8dd	8gg	8g
.	8GG	.	8g 8cc#	8A	8E	8E	8gg	8cc#	.	.	8dd	8dd	8gg	8g
2r	4GG	4gg	4cc# 4g	4A	4E	4E	4gg	4cc#	2r	2r	4dd	4dd	4gg	4g
.	4r	4r	4r	4r	4r	4r	4r	4r	.	.	4r	4r	4r	4r
=224	=224	=224	=224	=224	=224	=224	=224	=224	=224	=224	=224	=224	=224	=224
2.r	4D	4cc 4d	4d 4cc	4d	4F#	4F#	2.r	2.r	2.r	2.r	2.r	2.r	4dd	4dd
.	4D	4aa 4d 4cc	4a 4f#	4F#	4D	4D	.	.	.	.	.	.	4dd	4dd
.	4r	4r	4r	4r	4r	4r	.	.	.	.	.	.	4r	4r
=225	=225	=225	=225	=225	=225	=225	=225	=225	=225	=225	=225	=225	=225	=225
16bb	2.r	8gg	8g	4G	4G	4G	2.r	2.r	2.d	2.B	2.r	2.r	2.r	2.r
16ccc	.	.	.	.	.	.	.	.	.	.	.	.	.	.
16ddd	.	8r	8r	.	.	.	.	.	.	.	.	.	.	.
16ccc	.	.	.	.	.	.	.	.	.	.	.	.	.	.
16bb	.	8gg	8g	2r	2r	2r	.	.	.	.	.	.	.	.
16aa	.	.	.	.	.	.	.	.	.	.	.	.	.	.
16gg	.	8r	8r	.	.	.	.	.	.	.	.	.	.	.
16ff#	.	.	.	.	.	.	.	.	.	.	.	.	.	.
16ee	.	8gg	8g	.	.	.	.	.	.	.	.	.	.	.
16dd	.	.	.	.	.	.	.	.	.	.	.	.	.	.
16cc	.	16ff#	16f#	.	.	.	.	.	.	.	.	.	.	.
16b	.	16gg	16g	.	.	.	.	.	.	.	.	.	.	.
=226	=226	=226	=226	=226	=226	=226	=226	=226	=226	=226	=226	=226	=226	=226
4a	2.r	8aa	8a	4c	4C	4C	16ee	2.r	2.e	2.c	2.r	2.r	2.r	2.r
.	.	.	.	.	.	.	16ff#	.	.	.	.	.	.	.
.	.	8r	8r	.	.	.	16gg	.	.	.	.	.	.	.
.	.	.	.	.	.	.	16ff#	.	.	.	.	.	.	.
2r	.	8aa	8a	2r	2r	2r	16ee	.	.	.	.	.	.	.
.	.	.	.	.	.	.	16dd	.	.	.	.	.	.	.
.	.	4.r	4.r	.	.	.	16cc	.	.	.	.	.	.	.
.	.	.	.	.	.	.	16b	.	.	.	.	.	.	.
.	.	.	.	.	.	.	16a	.	.	.	.	.	.	.
.	.	.	.	.	.	.	16g	.	.	.	.	.	.	.
.	.	.	.	.	.	.	16f#	.	.	.	.	.	.	.
.	.	.	.	.	.	.	16e	.	.	.	.	.	.	.
=227	=227	=227	=227	=227	=227	=227	=227	=227	=227	=227	=227	=227	=227	=227
16f#	2.r	8dd	8d	4d	4D	4D	4d	2.r	2.f#	2.A	2.r	2.r	2.r	2.r
16g	.	.	.	.	.	.	.	.	.	.	.	.	.	.
16a	.	8r	8r	.	.	.	.	.	.	.	.	.	.	.
16b	.	.	.	.	.	.	.	.	.	.	.	.	.	.
16cc	.	8dd	8d	2r	2r	2r	2r	.	.	.	.	.	.	.
16dd	.	.	.	.	.	.	.	.	.	.	.	.	.	.
16ee	.	8r	8r	.	.	.	.	.	.	.	.	.	.	.
16ff#	.	.	.	.	.	.	.	.	.	.	.	.	.	.
16gg	.	8dd	8d	.	.	.	.	.	.	.	.	.	.	.
16aa	.	.	.	.	.	.	.	.	.	.	.	.	.	.
16bb	.	16cc#	16c#	.	.	.	.	.	.	.	.	.	.	.
16ccc	.	16dd	16d	.	.	.	.	.	.	.	.	.	.	.
=228	=228	=228	=228	=228	=228	=228	=228	=228	=228	=228	=228	=228	=228	=228
4bb	2r	8g	8G	4G	4G	4G	2r	2r	4g	4B	2r	2r	2r	2r
.	.	8r	4.r	.	.	.	.	.	.	.	.	.	.	.
4r	.	16gg	.	4r	4r	4r	.	.	4r	4r	.	.	.	.
.	.	16bb	.	.	.	.	.	.	.	.	.	.	.	.
.	.	16gg	.	.	.	.	.	.	.	.	.	.	.	.
.	.	16dd	.	.	.	.	.	.	.	.	.	.	.	.
4ddd	4D	16cc	4ff# 4a 4d	4d	4D	4D	4aa	4ff#	4D	4D	4dd	4g	4dd	4dd
.	.	16ee	.	.	.	.	.	.	.	.	.	.	.	.
.	.	16cc	.	.	.	.	.	.	.	.	.	.	.	.
.	.	16a	.	.	.	.	.	.	.	.	.	.	.	.
=229	=229	=229	=229	=229	=229	=229	=229	=229	=229	=229	=229	=229	=229	=229
4bb	4GG	8g	4gg 4b 4d	4d	4G	4G	4bb	4gg	4G	4G	4ee	4cc	4dd	4g
.	.	8r	.	.	.	.	.	.	.	.	.	.	.	.
4r	4r	16gg	4r	4r	4r	4r	4r	4r	4r	4r	4r	4r	4r	4r
.	.	16bb	.	.	.	.	.	.	.	.	.	.	.	.
.	.	16gg	.	.	.	.	.	.	.	.	.	.	.	.
.	.	16dd	.	.	.	.	.	.	.	.	.	.	.	.
4ddd	4D	16cc	4ff# 4d 4a	4d	4D	4D	4aa	4ff#	4D	4D	4dd	4g	4dd	4dd
.	.	16ee	.	.	.	.	.	.	.	.	.	.	.	.
.	.	16cc	.	.	.	.	.	.	.	.	.	.	.	.
.	.	16a	.	.	.	.	.	.	.	.	.	.	.	.
=230	=230	=230	=230	=230	=230	=230	=230	=230	=230	=230	=230	=230	=230	=230
8bb	4GG	4g	4gg 4b 4d	4d	4G	4G	8bb	8gg	8G	8G	8ee	8cc	4dd	4g
8r	.	.	.	.	.	.	8r	8r	8r	8r	8r	8r	.	.
8bb	2r	2r	2r	2r	2r	2r	8bb	8gg	8B	8G	8ee	8cc	2r	2r
8r	.	.	.	.	.	.	8r	8r	8r	8r	8r	8r	.	.
8ddd	.	.	.	.	.	.	8ddd	8bb	8d	8B	8gg	8ee	.	.
8r	.	.	.	.	.	.	8r	8r	8r	8r	8r	8r	.	.
=231	=231	=231	=231	=231	=231	=231	=231	=231	=231	=231	=231	=231	=231	=231
8bb	4r	4r	4r	4r	4r	4r	8bb	8gg	8B	8G	8ee	8cc	4r	4r
8r	.	.	.	.	.	.	8r	8r	8r	8r	8r	8r	.	.
4gg	4GG	4gg 4d 4b	4gg 4d 4b	4G	4G	4G	4gg	4b	4GG	4GG	4cc	4e	4dd	4g
4gg	4GG	4gg 4d 4b	4gg 4d 4b	4G	4G	4G	4gg	4b	4GG	4GG	4cc	4e	4dd	4g
=232	=232	=232	=232	=232	=232	=232	=232	=232	=232	=232	=232	=232	=232	=232
4gg	4GG	4gg 4d 4b	4gg 4b 4d	4G	4G	4G	4gg	4b	4GG	4GG	4cc	4e	4dd	4g
2r	2r	2r	2r	2r	2r	2r	2r	2r	2r	2r	2r	2r	2r	2r
==	==	==	==	==	==	==	==	==	==	==	==	==	==	==
*-	*-	*-	*-	*-	*-	*-	*-	*-	*-	*-	*-	*-	*-	*-
!!!RWG1: This file contains only pitch and duration data.
!!!RWG2: Transposing instruments are not transposed.
!!!RWG3: Spines may have incompatible meters.
!!!RWG4: Durations of rests and tied notes may be interpreted.
!!!RWG: Key is interpreted using the Humdrum key tool.
!!!OPT: Oxford
!!!AFT: stage1
!!!END: 1997/04/15
!!format changes:
!!content changes:
!!public access: complete
!!!KEY: 469142727
!!!EMD: Converted from MuseData to Humdrum Dec 16, 2000, by Andreas Kornstaedt using muse2kern.
